;FLAVOR:Marlin
;TIME:1312
;Filament used: 0.72497m
;Layer height: 0.16
;MINX:97.5
;MINY:81.5
;MINZ:0.2
;MAXX:137.5
;MAXY:153.5
;MAXZ:11.88
;Generated with Cura_SteamEngine 5.0.0
M140 S50
M105
M190 S50
M104 S200
M105
M109 S200
M82 ;absolute extrusion mode
; Ender 3 Custom Start G-code
G92 E0 ; Reset Extruder
G28 ; Home all axes
G1 Z2.0 F3000 ; Move Z Axis up little to prevent scratching of Heat Bed
G1 X0.1 Y20 Z0.3 F5000.0 ; Move to start position
G1 X0.1 Y200.0 Z0.3 F1500.0 E15 ; Draw the first line
G1 X0.4 Y200.0 Z0.3 F5000.0 ; Move to side a little
G1 X0.4 Y20 Z0.3 F1500.0 E30 ; Draw the second line
G92 E0 ; Reset Extruder
G1 Z2.0 F3000 ; Move Z Axis up little to prevent scratching of Heat Bed
G1 X5 Y20 Z0.3 F5000.0 ; Move over to prevent blob squish
G92 E0
G92 E0
G1 F2700 E-5
;LAYER_COUNT:61
;LAYER:0
M107
G0 F6000 X105.961 Y85.587 Z0.2
G0 X103.548 Y91.591
;TYPE:SKIRT
G1 F2700 E0
G1 F1200 X103.666 Y90.66 E0.03121
G1 X103.863 Y89.743 E0.06241
G1 X104.138 Y88.846 E0.09361
G1 X104.487 Y87.976 E0.12479
G1 X104.91 Y87.139 E0.15598
G1 X105.402 Y86.341 E0.18716
G1 X105.961 Y85.587 E0.21838
G1 X106.582 Y84.884 E0.24958
G1 X107.26 Y84.236 E0.28077
G1 X107.991 Y83.649 E0.31196
G1 X108.769 Y83.126 E0.34314
G1 X109.589 Y82.671 E0.37433
G1 X110.445 Y82.288 E0.40552
G1 X111.331 Y81.978 E0.43674
G1 X112.239 Y81.746 E0.46791
G1 X113.165 Y81.592 E0.49913
G1 X114.201 Y81.513 E0.53369
G1 X114.83 Y81.5 E0.55461
G1 X119.793 Y81.5 E0.71968
G1 X120.649 Y81.511 E0.74815
G1 X121.585 Y81.565 E0.77934
G1 X122.513 Y81.697 E0.81051
G1 X123.427 Y81.909 E0.84172
G1 X124.319 Y82.198 E0.87291
G1 X125.184 Y82.561 E0.90411
G1 X126.014 Y82.997 E0.93529
G1 X126.805 Y83.502 E0.9665
G1 X127.549 Y84.073 E0.9977
G1 X128.242 Y84.705 E1.02889
G1 X128.879 Y85.393 E1.06008
G1 X129.454 Y86.134 E1.09127
G1 X129.965 Y86.92 E1.12245
G1 X130.407 Y87.748 E1.15367
G1 X130.776 Y88.61 E1.18486
G1 X131.071 Y89.5 E1.21604
G1 X131.289 Y90.412 E1.24723
G1 X131.451 Y91.57 E1.28612
G1 X131.547 Y92.705 E1.32401
G1 X131.599 Y93.416 E1.34772
G1 X131.851 Y95.916 E1.43129
G1 X132.17 Y98.388 E1.51419
G1 X132.566 Y100.895 E1.59861
G1 X133.034 Y103.391 E1.68307
G1 X133.562 Y105.827 E1.76597
G1 X134.154 Y108.233 E1.84839
G1 X134.839 Y110.704 E1.93367
G1 X135.58 Y113.115 E2.01756
G1 X136.427 Y115.607 E2.1051
G1 X136.863 Y116.843 E2.1487
G1 X137.137 Y117.74 E2.17989
G1 X137.334 Y118.657 E2.21109
G1 X137.452 Y119.588 E2.2423
G1 X137.485 Y120.167 E2.26159
G1 X137.5 Y120.83 E2.28365
G1 X137.499 Y141.9 E2.98444
G1 X137.49 Y142.627 E3.00862
G1 X137.439 Y143.564 E3.03983
G1 X137.307 Y144.492 E3.07101
G1 X137.098 Y145.406 E3.10219
G1 X136.811 Y146.299 E3.13339
G1 X136.449 Y147.165 E3.16461
G1 X136.015 Y147.996 E3.19579
G1 X135.511 Y148.787 E3.22698
G1 X134.942 Y149.532 E3.25816
G1 X134.311 Y150.227 E3.28938
G1 X133.624 Y150.865 E3.32057
G1 X132.885 Y151.442 E3.35175
G1 X132.099 Y151.954 E3.38295
G1 X131.273 Y152.397 E3.41413
G1 X130.411 Y152.769 E3.44535
G1 X129.522 Y153.065 E3.47652
G1 X128.61 Y153.285 E3.50772
G1 X127.683 Y153.426 E3.53891
G1 X126.799 Y153.487 E3.56838
G1 X126.17 Y153.5 E3.5893
G1 X109.065 Y153.499 E4.15822
G1 X108.367 Y153.49 E4.18143
G1 X107.431 Y153.438 E4.21261
G1 X106.502 Y153.306 E4.24382
G1 X105.588 Y153.096 E4.27502
G1 X104.695 Y152.809 E4.30621
G1 X103.83 Y152.446 E4.33741
G1 X102.999 Y152.012 E4.36859
G1 X102.208 Y151.508 E4.39979
G1 X101.463 Y150.938 E4.43099
G1 X100.769 Y150.307 E4.46219
G1 X100.132 Y149.62 E4.49335
G1 X99.555 Y148.88 E4.52456
G1 X99.043 Y148.094 E4.55576
G1 X98.6 Y147.267 E4.58696
G1 X98.229 Y146.406 E4.61814
G1 X97.933 Y145.516 E4.64934
G1 X97.714 Y144.604 E4.68053
G1 X97.573 Y143.677 E4.71172
G1 X97.513 Y142.788 E4.74136
G1 X97.5 Y142.158 E4.76232
G1 X97.501 Y121.036 E5.46484
G1 X97.512 Y120.329 E5.48835
G1 X97.567 Y119.393 E5.51954
G1 X97.701 Y118.464 E5.55076
G1 X97.914 Y117.551 E5.58194
G1 X98.141 Y116.831 E5.60705
G1 X99.066 Y114.216 E5.6993
G1 X99.837 Y111.819 E5.78305
G1 X100.54 Y109.404 E5.86671
G1 X101.174 Y106.965 E5.95053
G1 X101.738 Y104.516 E6.03411
G1 X102.237 Y102.032 E6.11838
G1 X102.661 Y99.559 E6.20183
G1 X103.014 Y97.077 E6.28522
G1 X103.297 Y94.589 E6.3685
G1 X103.548 Y91.591 E6.46856
G1 F2700 E1.46856
G0 F6000 X103.414 Y97.112
G1 F2700 E6.46856
G1 F1200 X103.695 Y94.634 E6.55151
G1 X103.947 Y91.624 E6.65197
G1 X104.064 Y90.711 E6.68259
G1 X104.259 Y89.811 E6.71322
G1 X104.532 Y88.932 E6.74383
G1 X104.88 Y88.079 E6.77447
G1 X105.301 Y87.261 E6.80507
G1 X105.791 Y86.481 E6.83571
G1 X106.347 Y85.747 E6.86633
G1 X106.964 Y85.065 E6.89692
G1 X107.639 Y84.438 E6.92756
G1 X108.365 Y83.872 E6.95818
G1 X109.138 Y83.371 E6.98882
G1 X109.951 Y82.94 E7.01943
G1 X110.798 Y82.58 E7.05004
G1 X111.674 Y82.295 E7.08068
G1 X112.571 Y82.088 E7.11129
G1 X113.482 Y81.959 E7.1419
G1 X114.212 Y81.913 E7.16622
G1 X114.83 Y81.9 E7.18678
G1 X119.793 Y81.9 E7.35185
G1 X120.643 Y81.911 E7.38013
G1 X121.562 Y81.964 E7.41074
G1 X122.473 Y82.097 E7.44137
G1 X123.369 Y82.308 E7.47198
G1 X124.243 Y82.596 E7.50259
G1 X125.09 Y82.959 E7.53324
G1 X125.901 Y83.394 E7.56385
G1 X126.671 Y83.898 E7.59446
G1 X127.395 Y84.467 E7.62508
G1 X128.067 Y85.097 E7.65572
G1 X128.682 Y85.782 E7.68634
G1 X129.235 Y86.518 E7.71696
G1 X129.722 Y87.299 E7.74757
G1 X130.139 Y88.12 E7.7782
G1 X130.484 Y88.974 E7.80883
G1 X130.753 Y89.854 E7.83944
G1 X130.945 Y90.755 E7.87008
G1 X131.052 Y91.604 E7.89854
G1 X131.148 Y92.734 E7.93626
G1 X131.2 Y93.449 E7.9601
G1 X131.451 Y95.936 E8.04324
G1 X131.778 Y98.47 E8.12822
G1 X132.171 Y100.953 E8.21183
G1 X132.639 Y103.45 E8.29633
G1 X133.177 Y105.936 E8.38093
G1 X133.773 Y108.354 E8.46376
G1 X134.457 Y110.823 E8.54897
G1 X135.198 Y113.234 E8.63286
G1 X136.035 Y115.699 E8.71945
G1 X136.486 Y116.977 E8.76452
G1 X136.754 Y117.857 E8.79512
G1 X136.945 Y118.758 E8.82575
G1 X137.057 Y119.672 E8.85638
G1 X137.095 Y120.505 E8.88411
G1 X137.1 Y141.764 E9.59119
G1 X137.09 Y142.622 E9.61973
G1 X137.039 Y143.541 E9.65034
G1 X136.908 Y144.453 E9.68099
G1 X136.698 Y145.349 E9.7116
G1 X136.412 Y146.224 E9.74221
G1 X136.051 Y147.071 E9.77284
G1 X135.617 Y147.883 E9.80346
G1 X135.115 Y148.655 E9.83409
G1 X134.547 Y149.38 E9.86472
G1 X133.919 Y150.053 E9.89534
G1 X133.235 Y150.669 E9.92595
G1 X132.5 Y151.223 E9.95656
G1 X131.72 Y151.712 E9.98718
G1 X130.9 Y152.131 E10.01781
G1 X130.047 Y152.477 E10.04843
G1 X129.167 Y152.748 E10.07905
G1 X128.267 Y152.941 E10.10967
G1 X127.353 Y153.056 E10.14031
G1 X126.788 Y153.087 E10.15913
G1 X126.17 Y153.1 E10.17969
G1 X109.07 Y153.099 E10.74844
G1 X108.372 Y153.09 E10.77165
G1 X107.453 Y153.038 E10.80227
G1 X106.542 Y152.907 E10.83288
G1 X105.646 Y152.697 E10.86349
G1 X104.771 Y152.41 E10.89412
G1 X103.924 Y152.048 E10.92475
G1 X103.112 Y151.614 E10.95538
G1 X102.341 Y151.112 E10.98598
G1 X101.616 Y150.544 E11.01661
G1 X100.943 Y149.915 E11.04725
G1 X100.328 Y149.231 E11.07784
G1 X99.774 Y148.496 E11.10845
G1 X99.286 Y147.715 E11.13908
G1 X98.867 Y146.895 E11.16971
G1 X98.521 Y146.042 E11.20033
G1 X98.251 Y145.162 E11.23094
G1 X98.058 Y144.261 E11.26159
G1 X97.944 Y143.348 E11.29219
G1 X97.913 Y142.777 E11.31121
G1 X97.9 Y142.158 E11.3318
G1 X97.901 Y121.042 E12.03412
G1 X97.912 Y120.335 E12.05764
G1 X97.967 Y119.416 E12.08826
G1 X98.1 Y118.505 E12.11888
G1 X98.313 Y117.609 E12.14952
G1 X98.518 Y116.964 E12.17203
G1 X99.448 Y114.334 E12.26481
G1 X100.216 Y111.947 E12.34821
G1 X100.925 Y109.51 E12.43262
G1 X101.567 Y107.042 E12.51744
G1 X102.127 Y104.613 E12.60035
G1 X102.635 Y102.079 E12.68631
G1 X103.053 Y99.64 E12.76861
G1 X103.414 Y97.112 E12.85355
G1 F2700 E7.85355
G0 F6000 X103.029 Y102.147
G1 F2700 E12.85355
G1 F1200 X103.449 Y99.698 E12.93619
G1 X103.809 Y97.171 E13.02109
G1 X104.096 Y94.646 E13.10561
G1 X104.346 Y91.657 E13.20537
G1 X104.461 Y90.762 E13.23538
G1 X104.655 Y89.88 E13.26542
G1 X104.926 Y89.018 E13.29547
G1 X105.272 Y88.184 E13.32551
G1 X105.691 Y87.384 E13.35554
G1 X106.179 Y86.624 E13.38558
G1 X106.732 Y85.91 E13.41562
G1 X107.346 Y85.248 E13.44565
G1 X108.017 Y84.643 E13.4757
G1 X108.738 Y84.099 E13.50574
G1 X109.504 Y83.622 E13.53575
G1 X110.31 Y83.214 E13.5658
G1 X111.149 Y82.879 E13.59585
G1 X112.014 Y82.619 E13.62589
G1 X112.898 Y82.437 E13.65591
G1 X114.223 Y82.313 E13.70017
G1 X114.83 Y82.3 E13.72036
G1 X119.793 Y82.3 E13.88543
G1 X120.637 Y82.311 E13.91351
G1 X121.539 Y82.364 E13.94356
G1 X122.432 Y82.496 E13.97358
G1 X123.31 Y82.707 E14.00362
G1 X124.166 Y82.995 E14.03366
G1 X124.993 Y83.357 E14.06368
G1 X125.785 Y83.792 E14.09374
G1 X126.536 Y84.294 E14.12378
G1 X127.239 Y84.861 E14.15382
G1 X127.889 Y85.488 E14.18386
G1 X128.481 Y86.17 E14.2139
G1 X129.011 Y86.901 E14.24393
G1 X129.473 Y87.677 E14.27397
G1 X129.866 Y88.49 E14.304
G1 X130.184 Y89.335 E14.33403
G1 X130.427 Y90.205 E14.36407
G1 X130.592 Y91.093 E14.39411
G1 X130.654 Y91.638 E14.41236
G1 X130.749 Y92.763 E14.44991
G1 X130.801 Y93.482 E14.47388
G1 X131.054 Y95.991 E14.55776
G1 X131.38 Y98.512 E14.6423
G1 X131.783 Y101.058 E14.72804
G1 X132.241 Y103.503 E14.81077
G1 X132.79 Y106.037 E14.89701
G1 X133.378 Y108.427 E14.97887
G1 X134.075 Y110.942 E15.06567
G1 X134.81 Y113.333 E15.14887
G1 X135.683 Y115.904 E15.23918
G1 X136.109 Y117.11 E15.28172
G1 X136.371 Y117.974 E15.31175
G1 X136.556 Y118.858 E15.34179
G1 X136.685 Y120.191 E15.38633
G1 X136.7 Y120.83 E15.40759
G1 X136.699 Y141.89 E16.10805
G1 X136.69 Y142.617 E16.13223
G1 X136.639 Y143.519 E16.16228
G1 X136.508 Y144.413 E16.19233
G1 X136.299 Y145.291 E16.22235
G1 X136.013 Y146.148 E16.2524
G1 X135.652 Y146.976 E16.28244
G1 X135.22 Y147.768 E16.31245
G1 X134.719 Y148.52 E16.3425
G1 X134.153 Y149.224 E16.37255
G1 X133.528 Y149.875 E16.40256
G1 X132.847 Y150.469 E16.43262
G1 X132.116 Y151 E16.46267
G1 X131.342 Y151.464 E16.49268
G1 X130.529 Y151.858 E16.52273
G1 X129.685 Y152.178 E16.55275
G1 X128.815 Y152.423 E16.58281
G1 X127.928 Y152.589 E16.61283
G1 X126.777 Y152.687 E16.65125
G1 X126.17 Y152.7 E16.67144
G1 X109.075 Y152.699 E17.24002
G1 X108.377 Y152.69 E17.26324
G1 X107.476 Y152.639 E17.29326
G1 X106.582 Y152.507 E17.32331
G1 X105.704 Y152.298 E17.35333
G1 X104.847 Y152.011 E17.38339
G1 X104.02 Y151.65 E17.41341
G1 X103.227 Y151.217 E17.44346
G1 X102.476 Y150.716 E17.47348
G1 X101.772 Y150.15 E17.50353
G1 X101.121 Y149.524 E17.53357
G1 X100.528 Y148.843 E17.5636
G1 X99.998 Y148.112 E17.59363
G1 X99.534 Y147.337 E17.62367
G1 X99.14 Y146.524 E17.65372
G1 X98.82 Y145.68 E17.68374
G1 X98.576 Y144.81 E17.7138
G1 X98.41 Y143.922 E17.74384
G1 X98.313 Y142.767 E17.78239
G1 X98.3 Y142.158 E17.80265
G1 X98.301 Y121.048 E18.50478
G1 X98.312 Y120.341 E18.52829
G1 X98.366 Y119.44 E18.55832
G1 X98.5 Y118.547 E18.58835
G1 X98.712 Y117.669 E18.61839
G1 X98.895 Y117.098 E18.63833
G1 X99.827 Y114.464 E18.73126
G1 X100.598 Y112.066 E18.81504
G1 X101.311 Y109.617 E18.89988
G1 X101.949 Y107.161 E18.98428
G1 X102.52 Y104.683 E19.06885
G1 X103.029 Y102.147 E19.15488
G1 F2700 E14.15488
;MESH:Tray.stl
G0 F6000 X108.924 Y119.835
G0 X108.924 Y120.924
G0 X109.18 Y141.82
G1 F2700 E19.15488
G0 F6000 X108.7 Y142.3
;TYPE:WALL-OUTER
G1 F1200 X126.3 Y142.3 E19.74026
G1 X126.3 Y120.7 E20.45868
G1 X120.474 Y120.699 E20.65246
G1 X120.336 Y120.616 E20.65781
G1 X120.3 Y120.5 E20.66185
G1 X120.3 Y92.7 E21.58648
G1 X114.7 Y92.7 E21.77274
G1 X114.7 Y120.518 E22.69797
G1 X114.616 Y120.664 E22.70357
G1 X114.5 Y120.7 E22.70761
G1 X108.7 Y120.7 E22.90052
G1 X108.7 Y142.3 E23.61894
G0 F6000 X109.1 Y141.9
;TYPE:WALL-INNER
G1 F1200 X125.9 Y141.9 E24.17771
G1 X125.9 Y121.1 E24.86952
G1 X120.5 Y121.1 E25.04913
G1 X120.244 Y121.043 E25.05785
G1 X120.063 Y120.912 E25.06528
G1 X119.915 Y120.638 E25.07564
G1 X119.9 Y120.5 E25.08025
G1 X119.9 Y93.1 E25.99158
G1 X115.1 Y93.1 E26.15123
G1 X115.1 Y120.5 E27.06256
G1 X115.043 Y120.756 E27.07128
G1 X114.889 Y120.958 E27.07973
G1 X114.644 Y121.083 E27.08888
G1 X114.5 Y121.1 E27.0937
G1 X109.1 Y121.1 E27.27331
G1 X109.1 Y141.9 E27.96512
G0 F6000 X109.5 Y141.5
G1 F1200 X125.5 Y141.5 E28.49728
G1 X125.5 Y121.5 E29.16248
G1 X120.5 Y121.5 E29.32878
G1 X120.166 Y121.443 E29.34005
G1 X119.922 Y121.317 E29.34919
G1 X119.683 Y121.078 E29.36043
G1 X119.526 Y120.73 E29.37312
G1 X119.5 Y120.5 E29.38082
G1 X119.5 Y93.5 E30.27885
G1 X115.5 Y93.5 E30.41189
G1 X115.5 Y120.5 E31.30991
G1 X115.474 Y120.73 E31.31761
G1 X115.317 Y121.078 E31.33031
G1 X115.148 Y121.263 E31.33864
G1 X114.927 Y121.405 E31.34738
G1 X114.629 Y121.492 E31.3577
G1 X114.5 Y121.5 E31.362
G1 X109.5 Y121.5 E31.5283
G1 X109.5 Y141.5 E32.19351
G0 F6000 X109.86 Y141.14
;TYPE:SKIN
G1 F1200 X125.14 Y141.14 E32.70172
G1 X125.14 Y121.86 E33.34298
G1 X120.478 Y121.859 E33.49804
G1 X120.174 Y121.823 E33.50822
G1 X119.818 Y121.676 E33.52103
G1 X119.603 Y121.512 E33.53002
G1 X119.487 Y121.406 E33.53525
G1 X119.284 Y121.109 E33.54721
G1 X119.15 Y120.653 E33.56302
G1 X119.144 Y120.599 E33.56483
G1 X119.14 Y93.86 E34.45417
G1 X115.861 Y93.86 E34.56323
G1 X115.855 Y120.625 E35.45344
G1 X115.744 Y121.048 E35.46798
G1 X115.513 Y121.406 E35.48215
G1 X115.299 Y121.582 E35.49137
G1 X115.053 Y121.736 E35.50102
G1 X114.8 Y121.827 E35.50997
G1 X114.52 Y121.859 E35.51934
G1 X109.86 Y121.86 E35.67433
G1 X109.86 Y141.14 E36.31559
G0 F6000 X110.392 Y140.939
G1 F1200 X110.059 Y140.606 E36.33125
G0 F6000 X110.059 Y140.041
G1 F1200 X110.957 Y140.939 E36.37349
G0 F6000 X111.523 Y140.939
G1 F1200 X110.059 Y139.475 E36.44235
G0 F6000 X110.059 Y138.909
G1 F1200 X112.089 Y140.939 E36.53784
G0 F6000 X112.654 Y140.939
G1 F1200 X110.059 Y138.344 E36.6599
G0 F6000 X110.059 Y137.778
G1 F1200 X113.22 Y140.939 E36.80858
G0 F6000 X113.786 Y140.939
G1 F1200 X110.059 Y137.212 E36.98389
G0 F6000 X110.059 Y136.646
G1 F1200 X114.351 Y140.939 E37.18579
G0 F6000 X114.917 Y140.939
G1 F1200 X110.059 Y136.081 E37.4143
G0 F6000 X110.059 Y135.515
G1 F1200 X115.483 Y140.939 E37.66943
G0 F6000 X116.048 Y140.939
G1 F1200 X110.059 Y134.949 E37.95115
G0 F6000 X110.059 Y134.384
G1 F1200 X116.614 Y140.939 E38.25948
G0 F6000 X117.18 Y140.939
G1 F1200 X110.059 Y133.818 E38.59443
G0 F6000 X110.059 Y133.252
G1 F1200 X117.746 Y140.939 E38.956
G0 F6000 X118.311 Y140.939
G1 F1200 X110.059 Y132.687 E39.34415
G0 F6000 X110.059 Y132.121
G1 F1200 X118.877 Y140.939 E39.75893
G0 F6000 X119.443 Y140.939
G1 F1200 X110.059 Y131.555 E40.20032
G0 F6000 X110.059 Y130.99
G1 F1200 X120.008 Y140.939 E40.66829
G0 F6000 X120.574 Y140.939
G1 F1200 X110.059 Y130.424 E41.16288
G0 F6000 X110.059 Y129.858
G1 F1200 X121.14 Y140.939 E41.6841
G0 F6000 X121.705 Y140.939
G1 F1200 X110.059 Y129.293 E42.23189
G0 F6000 X110.059 Y128.727
G1 F1200 X122.271 Y140.939 E42.80631
G0 F6000 X122.837 Y140.939
G1 F1200 X110.059 Y128.161 E43.40735
G0 F6000 X110.059 Y127.596
G1 F1200 X123.402 Y140.939 E44.03496
G0 F6000 X123.968 Y140.939
G1 F1200 X110.059 Y127.03 E44.6892
G0 F6000 X110.059 Y126.464
G1 F1200 X124.534 Y140.939 E45.37006
G0 F6000 X124.94 Y140.779
G1 F1200 X110.059 Y125.898 E46.07001
G0 F6000 X110.059 Y125.333
G1 F1200 X124.94 Y140.213 E46.76995
G0 F6000 X124.94 Y139.647
G1 F1200 X110.059 Y124.767 E47.46988
G0 F6000 X110.059 Y124.201
G1 F1200 X124.94 Y139.082 E48.16983
G0 F6000 X124.94 Y138.516
G1 F1200 X110.059 Y123.636 E48.86977
G0 F6000 X110.059 Y123.07
G1 F1200 X124.94 Y137.95 E49.5697
G0 F6000 X124.94 Y137.385
G1 F1200 X110.059 Y122.504 E50.26966
G0 F6000 X110.179 Y122.059
G1 F1200 X124.94 Y136.819 E50.96395
G0 F6000 X124.94 Y136.253
G1 F1200 X110.745 Y122.059 E51.63161
G0 F6000 X111.311 Y122.059
G1 F1200 X124.94 Y135.688 E52.27268
G0 F6000 X124.94 Y135.122
G1 F1200 X111.876 Y122.058 E52.88717
G0 F6000 X112.441 Y122.058
G1 F1200 X124.94 Y134.556 E53.47506
G0 F6000 X124.94 Y133.991
G1 F1200 X113.007 Y122.058 E54.03635
G0 F6000 X113.572 Y122.057
G1 F1200 X124.94 Y133.425 E54.57107
G0 F6000 X124.94 Y132.859
G1 F1200 X114.138 Y122.057 E55.07916
G0 F6000 X114.686 Y122.04
G1 F1200 X124.94 Y132.294 E55.56148
G0 F6000 X124.94 Y131.728
G1 F1200 X115.131 Y121.919 E56.02286
G0 F6000 X115.474 Y121.697
G1 F1200 X124.94 Y131.162 E56.46809
G0 F6000 X124.94 Y130.596
G1 F1200 X115.745 Y121.402 E56.90057
G0 F6000 X115.94 Y121.031
G1 F1200 X124.94 Y130.031 E57.3239
G0 F6000 X124.94 Y129.465
