;FLAVOR:Marlin
;TIME:6071
;Filament used: 6.28535m
;Layer height: 0.28
;MINX:70.433
;MINY:52.581
;MINZ:0.28
;MAXX:164.585
;MAXY:182.44
;MAXZ:17.08
;Generated with Cura_SteamEngine 5.0.0
M140 S60
M105
M190 S60
M104 S200
M105
M109 S200
M82 ;absolute extrusion mode
; Ender 3 Custom Start G-code
G92 E0 ; Reset Extruder
G28 ; Home all axes
G1 Z2.0 F3000 ; Move Z Axis up little to prevent scratching of Heat Bed
G1 X0.1 Y20 Z0.3 F5000.0 ; Move to start position
G1 X0.1 Y200.0 Z0.3 F1500.0 E15 ; Draw the first line
G1 X0.4 Y200.0 Z0.3 F5000.0 ; Move to side a little
G1 X0.4 Y20 Z0.3 F1500.0 E30 ; Draw the second line
G92 E0 ; Reset Extruder
G1 Z2.0 F3000 ; Move Z Axis up little to prevent scratching of Heat Bed
G1 X5 Y20 Z0.3 F5000.0 ; Move over to prevent blob squish
G92 E0
G92 E0
G1 F2700 E-5
;LAYER_COUNT:61
;LAYER:0
M107
G0 F6000 X80.82 Y57.264 Z0.28
G0 X78.895 Y62.196
;TYPE:SKIRT
G1 F2700 E0
G1 F1200 X79.015 Y61.555 E0.03037
G1 X79.227 Y60.641 E0.07406
G1 X79.515 Y59.749 E0.1177
G1 X79.879 Y58.884 E0.1614
G1 X80.315 Y58.054 E0.20506
G1 X80.82 Y57.264 E0.24872
G1 X81.391 Y56.52 E0.29239
G1 X82.023 Y55.827 E0.33606
G1 X82.712 Y55.19 E0.37975
G1 X83.452 Y54.615 E0.42339
G1 X84.239 Y54.104 E0.46708
G1 X85.066 Y53.663 E0.51073
G1 X85.928 Y53.293 E0.55441
G1 X86.819 Y52.998 E0.59811
G1 X87.731 Y52.781 E0.64176
G1 X88.658 Y52.641 E0.68542
G1 X89.594 Y52.581 E0.72909
G1 X90.532 Y52.602 E0.77278
G1 X91.437 Y52.697 E0.81515
G1 X92.554 Y52.865 E0.86775
G1 X130.096 Y59.191 E2.6405
G1 X132.628 Y59.581 E2.75979
G1 X135.182 Y59.901 E2.87965
G1 X137.628 Y60.137 E2.99407
G1 X140.191 Y60.311 E3.11369
G1 X142.68 Y60.41 E3.22968
G1 X145.018 Y60.44 E3.33856
G1 X153.051 Y60.441 E3.71261
G1 X153.749 Y60.452 E3.74511
G1 X154.686 Y60.507 E3.78882
G1 X155.614 Y60.641 E3.83248
G1 X156.527 Y60.854 E3.87613
G1 X157.419 Y61.144 E3.91981
G1 X158.283 Y61.509 E3.96348
G1 X159.113 Y61.946 E4.00716
G1 X159.902 Y62.452 E4.05081
G1 X160.646 Y63.024 E4.09451
G1 X161.338 Y63.657 E4.13818
G1 X161.974 Y64.346 E4.18184
G1 X162.549 Y65.088 E4.22555
G1 X163.058 Y65.875 E4.26919
G1 X163.499 Y66.703 E4.31287
G1 X163.867 Y67.565 E4.35652
G1 X164.16 Y68.456 E4.40019
G1 X164.377 Y69.369 E4.44389
G1 X164.515 Y70.296 E4.48753
G1 X164.572 Y71.141 E4.52697
G1 X164.585 Y71.77 E4.55626
G1 X164.584 Y170.84 E9.16937
G1 X164.575 Y171.567 E9.20323
G1 X164.524 Y172.504 E9.24692
G1 X164.392 Y173.432 E9.29057
G1 X164.183 Y174.346 E9.33423
G1 X163.896 Y175.239 E9.37791
G1 X163.534 Y176.105 E9.42161
G1 X163.1 Y176.936 E9.46527
G1 X162.596 Y177.727 E9.50894
G1 X162.027 Y178.472 E9.55259
G1 X161.396 Y179.167 E9.5963
G1 X160.709 Y179.805 E9.63996
G1 X159.97 Y180.382 E9.68361
G1 X159.184 Y180.894 E9.72729
G1 X158.358 Y181.337 E9.77094
G1 X157.496 Y181.709 E9.81466
G1 X156.607 Y182.005 E9.85829
G1 X155.695 Y182.225 E9.90197
G1 X154.768 Y182.366 E9.94563
G1 X153.884 Y182.427 E9.98689
G1 X153.255 Y182.44 E10.01619
G1 X137.13 Y182.439 E10.76703
G1 X136.449 Y182.429 E10.79875
G1 X135.513 Y182.375 E10.8424
G1 X134.585 Y182.242 E10.88606
G1 X133.671 Y182.03 E10.92975
G1 X132.779 Y181.741 E10.97341
G1 X131.915 Y181.377 E11.01706
G1 X131.084 Y180.941 E11.06076
G1 X130.294 Y180.435 E11.10445
G1 X129.55 Y179.865 E11.14809
G1 X128.857 Y179.233 E11.19176
G1 X128.11 Y178.411 E11.24348
G1 X127.542 Y177.664 E11.28718
G1 X127.041 Y176.871 E11.33086
G1 X126.608 Y176.039 E11.37453
G1 X126.206 Y175.057 E11.42394
G1 X125.84 Y174.023 E11.47501
G1 X124.963 Y171.652 E11.59273
G1 X124.016 Y169.299 E11.71083
G1 X123.001 Y166.972 E11.82905
G1 X121.939 Y164.711 E11.94536
G1 X120.808 Y162.473 E12.06213
G1 X119.616 Y160.269 E12.1788
G1 X118.343 Y158.067 E12.29724
G1 X117.025 Y155.927 E12.41427
G1 X115.634 Y153.809 E12.53226
G1 X114.217 Y151.777 E12.64761
G1 X112.698 Y149.725 E12.76649
G1 X111.162 Y147.77 E12.88226
G1 X109.532 Y145.809 E13.001
G1 X107.874 Y143.927 E13.11779
G1 X106.174 Y142.103 E13.23389
G1 X104.403 Y140.308 E13.35131
G1 X102.587 Y138.57 E13.46835
G1 X100.686 Y136.85 E13.58773
G1 X98.802 Y135.24 E13.70312
G1 X96.84 Y133.656 E13.82054
G1 X94.83 Y132.127 E13.93814
G1 X92.785 Y130.66 E14.05533
G1 X90.711 Y129.258 E14.1719
G1 X88.584 Y127.907 E14.28923
G1 X86.422 Y126.62 E14.40639
G1 X84.201 Y125.378 E14.52488
G1 X82 Y124.231 E14.64045
G1 X79.713 Y123.118 E14.75888
G1 X77.501 Y122.116 E14.87196
G1 X77.012 Y121.902 E14.89681
G1 X76.169 Y121.49 E14.9405
G1 X75.365 Y121.007 E14.98418
G1 X74.606 Y120.457 E15.02782
G1 X73.895 Y119.845 E15.0715
G1 X73.24 Y119.174 E15.11517
G1 X72.643 Y118.45 E15.15886
G1 X72.111 Y117.678 E15.20252
G1 X71.647 Y116.863 E15.24619
G1 X71.253 Y116.012 E15.28986
G1 X70.934 Y115.13 E15.33353
G1 X70.69 Y114.224 E15.37722
G1 X70.525 Y113.301 E15.42088
G1 X70.439 Y112.367 E15.46455
G1 X70.433 Y111.429 E15.50823
G1 X70.545 Y110.215 E15.565
G1 X70.645 Y109.562 E15.59576
G1 X74.002 Y90.295 E16.50643
G1 X74.366 Y88.366 E16.59784
G1 X74.469 Y87.857 E16.62202
G1 X74.905 Y85.345 E16.74074
G1 X75.215 Y83.32 E16.83613
G1 X78.895 Y62.196 E17.83456
G0 F6000 X79.288 Y62.269
G1 F1200 X79.408 Y61.628 E17.86493
G1 X79.617 Y60.732 E17.90777
G1 X79.902 Y59.857 E17.95062
G1 X80.263 Y59.009 E17.99354
G1 X80.695 Y58.197 E18.03637
G1 X81.197 Y57.425 E18.07925
G1 X81.763 Y56.699 E18.12211
G1 X82.391 Y56.025 E18.16501
G1 X83.074 Y55.408 E18.20787
G1 X83.809 Y54.853 E18.25075
G1 X84.588 Y54.364 E18.29358
G1 X85.408 Y53.944 E18.33648
G1 X86.261 Y53.597 E18.37936
G1 X87.14 Y53.325 E18.4222
G1 X88.04 Y53.131 E18.46507
G1 X88.953 Y53.015 E18.50793
G1 X89.873 Y52.979 E18.5508
G1 X90.793 Y53.023 E18.59369
G1 X91.378 Y53.093 E18.62112
G1 X92.487 Y53.259 E18.67334
G1 X130.034 Y59.586 E20.44633
G1 X132.589 Y59.979 E20.5667
G1 X135.127 Y60.298 E20.68581
G1 X137.599 Y60.536 E20.80145
G1 X140.149 Y60.709 E20.92046
G1 X142.696 Y60.81 E21.03916
G1 X145.013 Y60.84 E21.14705
G1 X153.045 Y60.841 E21.52106
G1 X153.743 Y60.852 E21.55356
G1 X154.662 Y60.907 E21.59643
G1 X155.573 Y61.041 E21.63931
G1 X156.469 Y61.253 E21.68218
G1 X157.343 Y61.543 E21.72506
G1 X158.188 Y61.907 E21.7679
G1 X158.999 Y62.343 E21.81078
G1 X159.769 Y62.848 E21.85366
G1 X160.492 Y63.418 E21.89653
G1 X161.163 Y64.048 E21.93938
G1 X161.777 Y64.735 E21.98229
G1 X162.328 Y65.472 E22.02514
G1 X162.814 Y66.254 E22.06801
G1 X163.23 Y67.075 E22.11087
G1 X163.574 Y67.929 E22.15374
G1 X163.842 Y68.81 E22.19662
G1 X164.032 Y69.711 E22.23949
G1 X164.144 Y70.624 E22.28232
G1 X164.181 Y71.471 E22.3218
G1 X164.184 Y170.835 E26.94861
G1 X164.175 Y171.562 E26.98246
G1 X164.124 Y172.481 E27.02532
G1 X163.993 Y173.393 E27.06822
G1 X163.783 Y174.289 E27.11107
G1 X163.497 Y175.164 E27.15394
G1 X163.136 Y176.011 E27.19681
G1 X162.702 Y176.823 E27.23968
G1 X162.2 Y177.595 E27.28256
G1 X161.632 Y178.32 E27.32545
G1 X161.004 Y178.993 E27.36831
G1 X160.32 Y179.609 E27.41117
G1 X159.585 Y180.163 E27.45403
G1 X158.805 Y180.652 E27.4969
G1 X157.985 Y181.071 E27.53978
G1 X157.132 Y181.417 E27.58264
G1 X156.252 Y181.688 E27.62551
G1 X155.352 Y181.881 E27.66837
G1 X154.438 Y181.996 E27.71127
G1 X153.873 Y182.027 E27.73762
G1 X153.255 Y182.04 E27.7664
G1 X137.136 Y182.039 E28.51697
G1 X136.455 Y182.029 E28.54868
G1 X135.536 Y181.975 E28.59155
G1 X134.625 Y181.842 E28.63442
G1 X133.729 Y181.631 E28.67728
G1 X132.855 Y181.342 E28.72015
G1 X132.009 Y180.979 E28.76301
G1 X131.198 Y180.544 E28.80587
G1 X130.427 Y180.04 E28.84876
G1 X129.704 Y179.47 E28.89163
G1 X129.032 Y178.841 E28.93449
G1 X128.418 Y178.155 E28.97736
G1 X127.861 Y177.422 E29.02022
G1 X127.371 Y176.643 E29.06308
G1 X126.949 Y175.824 E29.10598
G1 X126.584 Y174.923 E29.15124
G1 X126.259 Y174.003 E29.19668
G1 X125.328 Y171.489 E29.32151
G1 X124.382 Y169.138 E29.43951
G1 X123.372 Y166.821 E29.5572
G1 X122.293 Y164.525 E29.67533
G1 X121.167 Y162.296 E29.79162
G1 X119.957 Y160.058 E29.91008
G1 X118.688 Y157.863 E30.02814
G1 X117.367 Y155.72 E30.14537
G1 X115.97 Y153.59 E30.26398
G1 X114.534 Y151.533 E30.38079
G1 X113.035 Y149.507 E30.49814
G1 X111.451 Y147.49 E30.61756
G1 X109.856 Y145.572 E30.73372
G1 X108.184 Y143.674 E30.8515
G1 X106.434 Y141.797 E30.971
G1 X104.699 Y140.039 E31.08601
G1 X102.832 Y138.251 E31.20638
G1 X100.986 Y136.58 E31.32232
G1 X99.028 Y134.908 E31.44222
G1 X97.093 Y133.345 E31.55804
G1 X95.077 Y131.812 E31.67597
G1 X93.02 Y130.336 E31.79386
G1 X90.919 Y128.916 E31.91194
G1 X88.782 Y127.559 E32.02982
G1 X86.601 Y126.26 E32.14802
G1 X84.443 Y125.055 E32.26311
G1 X82.153 Y123.86 E32.38339
G1 X79.903 Y122.766 E32.49988
G1 X77.679 Y121.758 E32.61358
G1 X77.172 Y121.536 E32.63936
G1 X76.346 Y121.13 E32.68221
G1 X75.558 Y120.654 E32.72508
G1 X74.814 Y120.112 E32.76794
G1 X74.12 Y119.507 E32.81081
G1 X73.481 Y118.844 E32.85369
G1 X72.902 Y118.128 E32.89657
G1 X72.388 Y117.365 E32.9394
G1 X71.941 Y116.56 E32.98228
G1 X71.566 Y115.719 E33.02516
G1 X71.266 Y114.848 E33.06805
G1 X71.042 Y113.955 E33.11092
G1 X70.896 Y113.046 E33.15379
G1 X70.83 Y112.128 E33.19665
G1 X70.844 Y111.207 E33.23954
G1 X70.94 Y110.274 E33.28321
G1 X71.039 Y109.63 E33.31355
G1 X74.395 Y90.369 E34.22394
G1 X74.759 Y88.445 E34.31512
G1 X74.855 Y87.968 E34.33777
G1 X75.305 Y85.377 E34.46023
G1 X75.609 Y83.388 E34.55392
G1 X79.288 Y62.269 E35.55212
G0 F6000 X79.681 Y62.343
G1 F1200 X79.801 Y61.702 E35.58248
G1 X80.006 Y60.823 E35.62451
G1 X80.289 Y59.965 E35.66658
G1 X80.646 Y59.135 E35.70865
G1 X81.075 Y58.341 E35.75068
G1 X81.573 Y57.587 E35.79275
G1 X82.135 Y56.88 E35.83481
G1 X82.758 Y56.226 E35.87687
G1 X83.436 Y55.63 E35.9189
G1 X84.164 Y55.096 E35.96094
G1 X84.936 Y54.628 E36.00298
G1 X85.747 Y54.23 E36.04504
G1 X86.59 Y53.906 E36.0871
G1 X87.459 Y53.658 E36.12918
G1 X88.345 Y53.487 E36.17119
G1 X89.244 Y53.396 E36.21327
G1 X90.147 Y53.384 E36.25532
G1 X91.32 Y53.489 E36.31016
G1 X92.421 Y53.654 E36.362
G1 X129.983 Y59.984 E38.1357
G1 X132.514 Y60.373 E38.25494
G1 X135.071 Y60.694 E38.37494
G1 X137.606 Y60.938 E38.49353
G1 X140.106 Y61.108 E38.61021
G1 X142.675 Y61.21 E38.72992
G1 X145.008 Y61.24 E38.83857
G1 X153.039 Y61.241 E39.21252
G1 X153.737 Y61.252 E39.24503
G1 X154.638 Y61.306 E39.28706
G1 X155.531 Y61.44 E39.32911
G1 X156.409 Y61.652 E39.37116
G1 X157.265 Y61.941 E39.41323
G1 X158.091 Y62.305 E39.45527
G1 X158.883 Y62.74 E39.49734
G1 X159.632 Y63.244 E39.53938
G1 X160.335 Y63.812 E39.58146
G1 X160.984 Y64.439 E39.62348
G1 X161.575 Y65.122 E39.66554
G1 X162.104 Y65.854 E39.70759
G1 X162.565 Y66.631 E39.74966
G1 X162.956 Y67.445 E39.79171
G1 X163.274 Y68.29 E39.83375
G1 X163.515 Y69.16 E39.87579
G1 X163.679 Y70.048 E39.91784
G1 X163.772 Y71.163 E39.96994
G1 X163.785 Y71.77 E39.99821
G1 X163.784 Y170.83 E44.61086
G1 X163.775 Y171.557 E44.64471
G1 X163.724 Y172.459 E44.68678
G1 X163.593 Y173.353 E44.72885
G1 X163.384 Y174.231 E44.77088
G1 X163.098 Y175.088 E44.81295
G1 X162.737 Y175.916 E44.85501
G1 X162.305 Y176.708 E44.89701
G1 X161.804 Y177.46 E44.93909
G1 X161.238 Y178.164 E44.98115
G1 X160.613 Y178.815 E45.02317
G1 X159.932 Y179.409 E45.06525
G1 X159.201 Y179.94 E45.10732
G1 X158.427 Y180.404 E45.14934
G1 X157.614 Y180.798 E45.19141
G1 X156.77 Y181.118 E45.23344
G1 X155.9 Y181.363 E45.27553
G1 X155.013 Y181.529 E45.31755
G1 X153.862 Y181.627 E45.37134
G1 X153.255 Y181.64 E45.39961
G1 X137.142 Y181.639 E46.1499
G1 X136.461 Y181.629 E46.18161
G1 X135.56 Y181.576 E46.22364
G1 X134.666 Y181.443 E46.26572
G1 X133.788 Y181.232 E46.30777
G1 X132.932 Y180.944 E46.34983
G1 X132.105 Y180.581 E46.39188
G1 X131.314 Y180.146 E46.43392
G1 X130.563 Y179.644 E46.47598
G1 X129.861 Y179.077 E46.518
G1 X129.211 Y178.45 E46.56005
G1 X128.725 Y177.9 E46.59423
G1 X128.18 Y177.18 E46.63627
G1 X127.701 Y176.415 E46.6783
G1 X127.291 Y175.61 E46.72037
G1 X126.961 Y174.79 E46.76153
G1 X126.634 Y173.864 E46.80725
G1 X125.692 Y171.318 E46.93366
G1 X124.757 Y168.995 E47.05026
G1 X123.743 Y166.67 E47.16837
G1 X122.655 Y164.354 E47.28752
G1 X121.518 Y162.104 E47.40491
G1 X120.304 Y159.858 E47.52379
G1 X119.026 Y157.647 E47.64271
G1 X117.715 Y155.521 E47.75901
G1 X116.299 Y153.363 E47.8792
G1 X114.868 Y151.312 E47.99565
G1 X113.339 Y149.246 E48.11533
G1 X111.789 Y147.273 E48.23216
G1 X110.148 Y145.298 E48.35173
G1 X108.46 Y143.383 E48.4706
G1 X106.729 Y141.526 E48.58881
G1 X104.978 Y139.751 E48.70491
G1 X103.111 Y137.964 E48.82525
G1 X101.25 Y136.28 E48.94211
G1 X99.294 Y134.609 E49.0619
G1 X97.319 Y133.014 E49.18011
G1 X95.33 Y131.501 E49.29648
G1 X93.231 Y129.995 E49.41677
G1 X91.136 Y128.58 E49.53449
G1 X89.011 Y127.23 E49.65172
G1 X86.805 Y125.916 E49.77128
G1 X84.617 Y124.694 E49.88798
G1 X82.334 Y123.503 E50.00788
G1 X80.064 Y122.399 E50.12542
G1 X77.894 Y121.416 E50.23635
G1 X77.333 Y121.17 E50.26487
G1 X76.522 Y120.771 E50.30696
G1 X75.75 Y120.302 E50.34902
G1 X75.023 Y119.767 E50.39105
G1 X74.346 Y119.169 E50.43311
G1 X73.724 Y118.514 E50.47517
G1 X73.163 Y117.807 E50.51719
G1 X72.666 Y117.053 E50.55925
G1 X72.238 Y116.257 E50.60133
G1 X71.883 Y115.427 E50.64336
G1 X71.601 Y114.569 E50.68542
G1 X71.397 Y113.689 E50.72748
G1 X71.272 Y112.795 E50.76951
G1 X71.226 Y111.893 E50.81157
G1 X71.26 Y110.99 E50.85365
G1 X71.336 Y110.332 E50.88449
G1 X71.433 Y109.699 E50.91431
G1 X74.788 Y90.443 E51.82446
G1 X75.151 Y88.524 E51.9154
G1 X75.249 Y88.038 E51.93848
G1 X75.696 Y85.463 E52.06018
G1 X76.003 Y83.457 E52.15468
G1 X79.681 Y62.343 E53.15264
G1 F2700 E48.15264
;MESH:Sorting Bay.stl
G0 F6000 X89.074 Y63.982
G0 X90.152 Y64.168
G0 X86.871 Y85.016
G0 X120.963 Y91.291
G0 X119.768 Y98.159
G0 X118.996 Y98.955
G0 X120.72 Y99.243
G0 X122.452 Y89.297
G0 X137.025 Y91.738
G0 X137.02 Y119.958
G0 X136.479 Y120.04
G1 F2700 E53.15264
G0 F6000 X136.55 Y119.637
;TYPE:WALL-OUTER
G1 F1200 X83.693 Y110.405 E55.65114
G1 X83.564 Y110.323 E55.65826
G1 X83.53 Y110.172 E55.66546
G1 X86.362 Y93.915 E56.43386
G1 X86.443 Y93.787 E56.44091
G1 X86.62 Y93.756 E56.44928
G1 X120.913 Y99.515 E58.06847
G1 X122.611 Y89.766 E58.52925
G1 X122.706 Y89.629 E58.53702
G1 X122.843 Y89.603 E58.54351
G1 X136.619 Y91.913 E59.19393
G1 X136.725 Y91.967 E59.19947
G1 X136.785 Y92.111 E59.20674
G1 X136.785 Y119.439 E60.47924
G1 X136.705 Y119.6 E60.48762
G1 X136.55 Y119.637 E60.49504
G0 F6000 X136.482 Y120.031
;TYPE:WALL-INNER
G1 F1200 X83.624 Y110.799 E62.99358
G1 X83.236 Y110.553 E63.01498
G1 X83.128 Y110.208 E63.03181
G1 X83.136 Y110.103 E63.03671
G1 X85.968 Y93.846 E63.80511
G1 X86.21 Y93.461 E63.82628
G1 F1061.9 X86.56 Y93.298 E63.8466
G1 F875.9 X86.702 Y93.267 E63.85587
G1 F812.2 X86.95 Y93.309 E63.87317
G1 F813.6 X87.198 Y93.351 E63.89045
G1 X87.447 Y93.393 E63.90779
G1 F814.9 X87.695 Y93.435 E63.92504
G1 F816.3 X87.944 Y93.477 E63.94232
G1 F817.7 X88.192 Y93.519 E63.95951
G1 X88.441 Y93.561 E63.97677
G1 F819.1 X88.689 Y93.603 E63.99393
G1 F820.5 X88.938 Y93.645 E64.01112
G1 F821.9 X89.186 Y93.688 E64.02823
G1 X89.435 Y93.73 E64.0454
G1 F823.3 X89.683 Y93.772 E64.06247
G1 F824.7 X89.932 Y93.814 E64.07958
G1 F826.2 X90.18 Y93.856 E64.09659
G1 X90.428 Y93.898 E64.1136
G1 F827.6 X90.677 Y93.94 E64.13065
G1 F829 X90.925 Y93.982 E64.14761
G1 F830.4 X91.174 Y94.024 E64.1646
G1 X91.422 Y94.066 E64.18152
G1 F831.9 X91.671 Y94.109 E64.1985
G1 F833.3 X91.919 Y94.151 E64.21536
G1 F834.8 X92.168 Y94.193 E64.23226
G1 X92.416 Y94.235 E64.2491
G1 F836.2 X92.665 Y94.277 E64.26597
G1 F837.7 X92.913 Y94.319 E64.28275
G1 F839.2 X93.162 Y94.361 E64.29957
G1 X93.41 Y94.403 E64.31631
G1 F840.6 X93.658 Y94.445 E64.33303
G1 F842.1 X93.907 Y94.488 E64.3498
G1 F843.6 X94.155 Y94.53 E64.36646
G1 X94.404 Y94.572 E64.38319
G1 F845.1 X94.652 Y94.614 E64.39982
G1 F846.6 X94.901 Y94.656 E64.41649
G1 F848.1 X95.149 Y94.698 E64.43306
G1 X95.398 Y94.74 E64.4497
G1 F849.6 X95.646 Y94.782 E64.46624
G1 F851.1 X95.895 Y94.824 E64.48282
G1 F852.6 X96.143 Y94.866 E64.4993
G1 X96.392 Y94.909 E64.51587
G1 F854.1 X96.64 Y94.951 E64.53232
G1 F855.6 X96.888 Y94.993 E64.54875
G1 F857.1 X97.137 Y95.035 E64.56521
G1 X97.385 Y95.077 E64.58161
G1 F858.7 X97.634 Y95.119 E64.59804
G1 F860.2 X97.882 Y95.161 E64.61438
G1 F861.8 X98.131 Y95.203 E64.63075
G1 X98.379 Y95.245 E64.64706
G1 F863.3 X98.628 Y95.288 E64.66342
G1 F864.9 X98.876 Y95.33 E64.67967
G1 F866.4 X99.125 Y95.372 E64.69595
G1 X99.373 Y95.414 E64.71217
