;FLAVOR:Marlin
;TIME:1604
;Filament used: 1.02119m
;Layer height: 0.16
;MINX:94.5
;MINY:81.5
;MINZ:0.2
;MAXX:140.5
;MAXY:153.5
;MAXZ:13.88
;Generated with Cura_SteamEngine 5.0.0
M140 S50
M105
M190 S50
M104 S200
M105
M109 S200
M82 ;absolute extrusion mode
; Ender 3 Custom Start G-code
G92 E0 ; Reset Extruder
G28 ; Home all axes
G1 Z2.0 F3000 ; Move Z Axis up little to prevent scratching of Heat Bed
G1 X0.1 Y20 Z0.3 F5000.0 ; Move to start position
G1 X0.1 Y200.0 Z0.3 F1500.0 E15 ; Draw the first line
G1 X0.4 Y200.0 Z0.3 F5000.0 ; Move to side a little
G1 X0.4 Y20 Z0.3 F1500.0 E30 ; Draw the second line
G92 E0 ; Reset Extruder
G1 Z2.0 F3000 ; Move Z Axis up little to prevent scratching of Heat Bed
G1 X5 Y20 Z0.3 F5000.0 ; Move over to prevent blob squish
G92 E0
G92 E0
G1 F2700 E-5
;LAYER_COUNT:71
;LAYER:0
M107
G0 F6000 X106.073 Y85.451 Z0.2
G0 X103.353 Y92.424
;TYPE:SKIRT
G1 F2700 E0
G1 F1200 X103.562 Y91.213 E0.04087
G1 X103.698 Y90.486 E0.06547
G1 X103.909 Y89.573 E0.09664
G1 X104.198 Y88.68 E0.12786
G1 X104.561 Y87.816 E0.15903
G1 X104.997 Y86.985 E0.19024
G1 X105.502 Y86.195 E0.22143
G1 X106.073 Y85.451 E0.25262
G1 X106.705 Y84.758 E0.28381
G1 X107.394 Y84.121 E0.31502
G1 X108.134 Y83.545 E0.34621
G1 X108.921 Y83.035 E0.3774
G1 X109.748 Y82.593 E0.40859
G1 X110.61 Y82.224 E0.43978
G1 X111.5 Y81.929 E0.47096
G1 X112.413 Y81.711 E0.50218
G1 X113.34 Y81.571 E0.53337
G1 X114.201 Y81.513 E0.56207
G1 X114.83 Y81.5 E0.58299
G1 X119.793 Y81.5 E0.74806
G1 X120.649 Y81.511 E0.77654
G1 X121.586 Y81.565 E0.80775
G1 X122.514 Y81.697 E0.83893
G1 X123.428 Y81.909 E0.87014
G1 X124.32 Y82.198 E0.90132
G1 X125.185 Y82.561 E0.93252
G1 X126.015 Y82.997 E0.96371
G1 X126.805 Y83.502 E0.99489
G1 X127.55 Y84.073 E1.02611
G1 X128.243 Y84.705 E1.05731
G1 X128.88 Y85.393 E1.08849
G1 X129.455 Y86.134 E1.11969
G1 X129.966 Y86.92 E1.15087
G1 X130.408 Y87.748 E1.18209
G1 X130.777 Y88.609 E1.21324
G1 X131.072 Y89.5 E1.24446
G1 X131.332 Y90.643 E1.28345
G1 X131.441 Y91.274 E1.30474
G1 X131.924 Y93.854 E1.39205
G1 X132.463 Y96.343 E1.47675
G1 X133.061 Y98.769 E1.55985
G1 X133.73 Y101.179 E1.64304
G1 X134.468 Y103.582 E1.72665
G1 X135.281 Y105.985 E1.81102
G1 X136.162 Y108.361 E1.89531
G1 X137.093 Y110.669 E1.97808
G1 X138.105 Y112.99 E2.0623
G1 X139.387 Y115.704 E2.16213
G1 X139.76 Y116.564 E2.19331
G1 X140.059 Y117.454 E2.22454
G1 X140.28 Y118.365 E2.25571
G1 X140.423 Y119.292 E2.28691
G1 X140.485 Y120.167 E2.31609
G1 X140.5 Y120.83 E2.33814
G1 X140.499 Y141.9 E3.03894
G1 X140.49 Y142.627 E3.06312
G1 X140.439 Y143.564 E3.09433
G1 X140.307 Y144.492 E3.1255
G1 X140.098 Y145.406 E3.15669
G1 X139.811 Y146.299 E3.18789
G1 X139.449 Y147.165 E3.2191
G1 X139.015 Y147.996 E3.25029
G1 X138.511 Y148.787 E3.28148
G1 X137.942 Y149.532 E3.31266
G1 X137.311 Y150.227 E3.34388
G1 X136.624 Y150.865 E3.37507
G1 X135.885 Y151.442 E3.40625
G1 X135.099 Y151.954 E3.43745
G1 X134.273 Y152.397 E3.46862
G1 X133.411 Y152.769 E3.49985
G1 X132.522 Y153.065 E3.53101
G1 X131.61 Y153.285 E3.56222
G1 X130.683 Y153.426 E3.5934
G1 X129.799 Y153.487 E3.62288
G1 X129.17 Y153.5 E3.6438
G1 X106.065 Y153.499 E4.41228
G1 X105.367 Y153.49 E4.43549
G1 X104.431 Y153.438 E4.46667
G1 X103.502 Y153.306 E4.49788
G1 X102.588 Y153.096 E4.52907
G1 X101.695 Y152.809 E4.56027
G1 X100.83 Y152.446 E4.59147
G1 X99.999 Y152.012 E4.62265
G1 X99.208 Y151.508 E4.65385
G1 X98.463 Y150.938 E4.68505
G1 X97.769 Y150.307 E4.71625
G1 X97.132 Y149.62 E4.74741
G1 X96.555 Y148.88 E4.77862
G1 X96.043 Y148.094 E4.80982
G1 X95.6 Y147.267 E4.84102
G1 X95.229 Y146.406 E4.8722
G1 X94.933 Y145.516 E4.9034
G1 X94.714 Y144.604 E4.93459
G1 X94.573 Y143.677 E4.96578
G1 X94.513 Y142.788 E4.99542
G1 X94.5 Y142.158 E5.01638
G1 X94.501 Y121.051 E5.7184
G1 X94.511 Y120.347 E5.74181
G1 X94.564 Y119.41 E5.77303
G1 X94.697 Y118.482 E5.80421
G1 X94.909 Y117.568 E5.83542
G1 X95.197 Y116.676 E5.86659
G1 X95.551 Y115.831 E5.89706
G1 X95.995 Y114.887 E5.93176
G1 X96.457 Y113.935 E5.96696
G1 X97.478 Y111.669 E6.04962
G1 X98.476 Y109.275 E6.13589
G1 X99.358 Y106.979 E6.21769
G1 X100.198 Y104.594 E6.3018
G1 X100.959 Y102.222 E6.38465
G1 X101.664 Y99.788 E6.46893
G1 X102.3 Y97.339 E6.55309
G1 X102.861 Y94.886 E6.63678
G1 X103.353 Y92.424 E6.72029
G1 F2700 E1.72029
G0 F6000 X102.691 Y97.423
G1 F2700 E6.72029
G1 F1200 X103.25 Y94.981 E6.80361
G1 X103.747 Y92.492 E6.88803
G1 X103.955 Y91.287 E6.9287
G1 X104.091 Y90.56 E6.9533
G1 X104.299 Y89.663 E6.98392
G1 X104.585 Y88.788 E7.01454
G1 X104.945 Y87.941 E7.04515
G1 X105.377 Y87.128 E7.07577
G1 X105.879 Y86.356 E7.1064
G1 X106.445 Y85.63 E7.13702
G1 X107.073 Y84.956 E7.16766
G1 X107.756 Y84.339 E7.19827
G1 X108.49 Y83.784 E7.22888
G1 X109.27 Y83.295 E7.2595
G1 X110.09 Y82.875 E7.29014
G1 X110.942 Y82.527 E7.32075
G1 X111.822 Y82.256 E7.35138
G1 X112.722 Y82.061 E7.38201
G1 X113.635 Y81.945 E7.41262
G1 X114.212 Y81.913 E7.43184
G1 X114.83 Y81.9 E7.4524
G1 X119.793 Y81.9 E7.61747
G1 X120.644 Y81.911 E7.64577
G1 X121.563 Y81.964 E7.67639
G1 X122.474 Y82.097 E7.70701
G1 X123.37 Y82.308 E7.73763
G1 X124.244 Y82.596 E7.76823
G1 X125.09 Y82.959 E7.79885
G1 X125.902 Y83.394 E7.82949
G1 X126.672 Y83.898 E7.8601
G1 X127.396 Y84.467 E7.89073
G1 X128.068 Y85.096 E7.92134
G1 X128.683 Y85.782 E7.95198
G1 X129.236 Y86.518 E7.9826
G1 X129.723 Y87.299 E8.01322
G1 X130.14 Y88.12 E8.04384
G1 X130.485 Y88.974 E8.07448
G1 X130.754 Y89.854 E8.10508
G1 X130.938 Y90.711 E8.13424
G1 X131.04 Y91.306 E8.15432
G1 X131.535 Y93.948 E8.24372
G1 X132.07 Y96.418 E8.32778
G1 X132.674 Y98.866 E8.41164
G1 X133.345 Y101.289 E8.49526
G1 X134.096 Y103.732 E8.58027
G1 X134.899 Y106.104 E8.66356
G1 X135.792 Y108.513 E8.74901
G1 X136.726 Y110.83 E8.8321
G1 X137.741 Y113.155 E8.91648
G1 X138.802 Y115.412 E8.99943
G1 X139.028 Y115.878 E9.01665
G1 X139.393 Y116.724 E9.0473
G1 X139.684 Y117.597 E9.0779
G1 X139.897 Y118.493 E9.10854
G1 X140.033 Y119.403 E9.13914
G1 X140.085 Y120.179 E9.16501
G1 X140.1 Y120.83 E9.18666
G1 X140.099 Y141.895 E9.88729
G1 X140.09 Y142.622 E9.91147
G1 X140.039 Y143.541 E9.94208
G1 X139.908 Y144.453 E9.97273
G1 X139.698 Y145.349 E10.00334
G1 X139.412 Y146.224 E10.03395
G1 X139.051 Y147.071 E10.06458
G1 X138.617 Y147.883 E10.0952
G1 X138.115 Y148.655 E10.12583
G1 X137.547 Y149.38 E10.15646
G1 X136.919 Y150.053 E10.18708
G1 X136.235 Y150.669 E10.21769
G1 X135.5 Y151.223 E10.24831
G1 X134.72 Y151.712 E10.27893
G1 X133.9 Y152.131 E10.30955
G1 X133.047 Y152.477 E10.34017
G1 X132.167 Y152.748 E10.37079
G1 X131.267 Y152.941 E10.40141
G1 X130.353 Y153.056 E10.43205
G1 X129.788 Y153.087 E10.45087
G1 X129.17 Y153.1 E10.47143
G1 X106.07 Y153.099 E11.23974
G1 X105.372 Y153.09 E11.26296
G1 X104.453 Y153.038 E11.29357
G1 X103.542 Y152.907 E11.32418
G1 X102.646 Y152.697 E11.35479
G1 X101.771 Y152.41 E11.38542
G1 X100.924 Y152.048 E11.41605
G1 X100.112 Y151.614 E11.44668
G1 X99.341 Y151.112 E11.47728
G1 X98.616 Y150.544 E11.50791
G1 X97.943 Y149.915 E11.53855
G1 X97.328 Y149.231 E11.56914
G1 X96.774 Y148.496 E11.59976
G1 X96.286 Y147.715 E11.63039
G1 X95.867 Y146.895 E11.66101
G1 X95.521 Y146.042 E11.69163
G1 X95.251 Y145.162 E11.72224
G1 X95.058 Y144.261 E11.75289
G1 X94.944 Y143.348 E11.78349
G1 X94.913 Y142.777 E11.80251
G1 X94.9 Y142.158 E11.82311
G1 X94.901 Y121.056 E12.52496
G1 X94.911 Y120.352 E12.54838
G1 X94.964 Y119.433 E12.579
G1 X95.097 Y118.522 E12.60962
G1 X95.308 Y117.626 E12.64023
G1 X95.596 Y116.752 E12.67084
G1 X95.914 Y116.001 E12.69797
G1 X96.355 Y115.062 E12.73247
G1 X96.824 Y114.096 E12.76819
G1 X97.849 Y111.822 E12.85115
G1 X98.831 Y109.466 E12.93604
G1 X99.735 Y107.113 E13.01988
G1 X100.581 Y104.712 E13.10455
G1 X101.349 Y102.318 E13.18817
G1 X102.041 Y99.927 E13.27096
G1 X102.691 Y97.423 E13.357
G1 F2700 E8.357
G0 F6000 X101.728 Y102.446
G1 F2700 E13.357
G1 F1200 X102.439 Y99.992 E13.44198
G1 X103.066 Y97.574 E13.52506
G1 X103.651 Y95.017 E13.61231
G1 X104.134 Y92.601 E13.69425
G1 X104.348 Y91.36 E13.73614
G1 X104.484 Y90.633 E13.76074
G1 X104.689 Y89.754 E13.79076
G1 X104.971 Y88.896 E13.8208
G1 X105.328 Y88.066 E13.85085
G1 X105.757 Y87.272 E13.88087
G1 X106.255 Y86.518 E13.91092
G1 X106.817 Y85.811 E13.94096
G1 X107.44 Y85.157 E13.971
G1 X108.118 Y84.561 E14.00103
G1 X108.846 Y84.026 E14.03108
G1 X109.618 Y83.559 E14.06108
G1 X110.429 Y83.161 E14.09113
G1 X111.272 Y82.837 E14.12117
G1 X112.14 Y82.588 E14.1512
G1 X113.027 Y82.417 E14.18125
G1 X114.223 Y82.313 E14.22118
G1 X114.83 Y82.3 E14.24137
G1 X119.793 Y82.3 E14.40644
G1 X120.638 Y82.311 E14.43455
G1 X121.539 Y82.364 E14.46457
G1 X122.433 Y82.496 E14.49462
G1 X123.311 Y82.707 E14.52466
G1 X124.167 Y82.995 E14.5547
G1 X124.994 Y83.357 E14.58472
G1 X125.786 Y83.791 E14.61476
G1 X126.537 Y84.294 E14.64482
G1 X127.24 Y84.861 E14.67486
G1 X127.89 Y85.488 E14.7049
G1 X128.482 Y86.17 E14.73494
G1 X129.011 Y86.901 E14.76495
G1 X129.474 Y87.677 E14.79501
G1 X129.866 Y88.49 E14.82502
G1 X130.185 Y89.335 E14.85507
G1 X130.428 Y90.205 E14.88511
G1 X130.544 Y90.779 E14.90459
G1 X130.665 Y91.479 E14.92821
G1 X131.136 Y93.993 E15.01328
G1 X131.684 Y96.526 E15.09948
G1 X132.288 Y98.972 E15.18328
G1 X132.963 Y101.408 E15.26735
G1 X133.707 Y103.831 E15.35166
G1 X134.521 Y106.235 E15.43607
G1 X135.417 Y108.653 E15.52184
G1 X136.353 Y110.973 E15.60505
G1 X137.384 Y113.335 E15.69077
G1 X138.442 Y115.587 E15.77352
G1 X138.668 Y116.053 E15.79075
G1 X139.025 Y116.882 E15.82077
G1 X139.308 Y117.74 E15.85082
G1 X139.514 Y118.619 E15.88085
G1 X139.642 Y119.513 E15.91088
G1 X139.685 Y120.191 E15.93348
G1 X139.7 Y120.83 E15.95474
G1 X139.699 Y141.89 E16.6552
G1 X139.69 Y142.617 E16.67938
G1 X139.639 Y143.519 E16.70943
G1 X139.508 Y144.413 E16.73948
G1 X139.299 Y145.291 E16.7695
G1 X139.013 Y146.148 E16.79955
G1 X138.652 Y146.976 E16.82959
G1 X138.22 Y147.768 E16.8596
G1 X137.719 Y148.52 E16.88965
G1 X137.153 Y149.224 E16.91969
G1 X136.528 Y149.875 E16.94971
G1 X135.847 Y150.469 E16.97977
G1 X135.116 Y151 E17.00982
G1 X134.342 Y151.464 E17.03983
G1 X133.529 Y151.858 E17.06988
G1 X132.685 Y152.178 E17.0999
G1 X131.815 Y152.423 E17.12996
G1 X130.928 Y152.589 E17.15998
G1 X129.777 Y152.687 E17.1984
G1 X129.17 Y152.7 E17.21859
G1 X106.075 Y152.699 E17.98673
G1 X105.377 Y152.69 E18.00995
G1 X104.476 Y152.639 E18.03997
G1 X103.582 Y152.507 E18.07002
G1 X102.704 Y152.298 E18.10004
G1 X101.847 Y152.011 E18.1301
G1 X101.02 Y151.65 E18.16011
G1 X100.227 Y151.217 E18.19017
G1 X99.476 Y150.716 E18.22019
G1 X98.772 Y150.15 E18.25024
G1 X98.121 Y149.524 E18.28028
G1 X97.528 Y148.843 E18.31031
G1 X96.998 Y148.112 E18.34034
G1 X96.534 Y147.337 E18.37038
G1 X96.14 Y146.524 E18.40043
G1 X95.82 Y145.68 E18.43045
G1 X95.576 Y144.81 E18.46051
G1 X95.41 Y143.922 E18.49055
G1 X95.313 Y142.767 E18.5291
G1 X95.3 Y142.158 E18.54936
G1 X95.301 Y121.062 E19.25102
G1 X95.311 Y120.358 E19.27444
G1 X95.364 Y119.457 E19.30446
G1 X95.496 Y118.563 E19.33451
G1 X95.707 Y117.685 E19.36455
G1 X95.995 Y116.829 E19.39459
G1 X96.276 Y116.171 E19.41838
G1 X96.715 Y115.237 E19.45271
G1 X97.171 Y114.299 E19.4874
G1 X98.224 Y111.962 E19.57265
G1 X99.214 Y109.585 E19.6583
G1 X100.11 Y107.253 E19.74139
G1 X100.953 Y104.862 E19.82571
G1 X101.728 Y102.446 E19.9101
G1 F2700 E14.9101
;MESH:Tray.stl
G0 F6000 X105.924 Y119.835
G0 X105.924 Y120.924
G0 X106.18 Y141.82
G1 F2700 E19.9101
G0 F6000 X105.7 Y142.3
;TYPE:WALL-OUTER
G1 F1200 X129.3 Y142.3 E20.69504
G1 X129.3 Y120.7 E21.41346
G1 X120.48 Y120.699 E21.70681
G1 X120.341 Y120.623 E21.71208
G1 X120.3 Y120.5 E21.71639
G1 X120.3 Y92.7 E22.64102
G1 X114.7 Y92.7 E22.82728
G1 X114.7 Y120.518 E23.75251
G1 X114.623 Y120.658 E23.75783
G1 X114.5 Y120.7 E23.76215
G1 X105.7 Y120.7 E24.05484
G1 X105.7 Y142.3 E24.77326
G0 F6000 X106.1 Y141.9
;TYPE:WALL-INNER
G1 F1200 X128.9 Y141.9 E25.53159
G1 X128.9 Y121.1 E26.2234
G1 X120.5 Y121.1 E26.50278
G1 X120.237 Y121.04 E26.51176
G1 X120.024 Y120.867 E26.52088
G1 X119.918 Y120.65 E26.52892
G1 X119.9 Y120.5 E26.53394
G1 X119.9 Y93.1 E27.44527
G1 X115.1 Y93.1 E27.60492
G1 X115.1 Y120.5 E28.51624
G1 X115.034 Y120.775 E28.52565
G1 X114.869 Y120.974 E28.53425
G1 X114.614 Y121.09 E28.54357
G1 X114.5 Y121.1 E28.54737
G1 X106.1 Y121.1 E28.82676
G1 X106.1 Y141.9 E29.51857
G0 F6000 X106.5 Y141.5
G1 F1200 X128.5 Y141.5 E30.25029
G1 X128.5 Y121.5 E30.91549
G1 X120.5 Y121.5 E31.18157
G1 X120.232 Y121.464 E31.19057
G1 X119.955 Y121.34 E31.20066
G1 X119.708 Y121.111 E31.21187
G1 X119.531 Y120.749 E31.22527
G1 X119.5 Y120.5 E31.23361
G1 X119.5 Y93.5 E32.13164
G1 X115.5 Y93.5 E32.26468
G1 X115.5 Y120.5 E33.1627
G1 X115.469 Y120.749 E33.17105
G1 X115.292 Y121.111 E33.18445
G1 X115.115 Y121.29 E33.19282
G1 X114.897 Y121.418 E33.20123
G1 X114.6 Y121.495 E33.21144
G1 X114.5 Y121.5 E33.21477
G1 X106.5 Y121.5 E33.48085
G1 X106.5 Y141.5 E34.14605
G0 F6000 X106.861 Y141.139
;TYPE:SKIN
G1 F1200 X128.14 Y141.14 E34.85379
G1 X128.14 Y121.86 E35.49505
G1 X120.485 Y121.86 E35.74965
G1 X120.132 Y121.808 E35.76152
G1 X119.891 Y121.713 E35.77014
G1 X119.572 Y121.494 E35.78301
G1 X119.304 Y121.145 E35.79764
G1 X119.187 Y120.859 E35.80792
G1 X119.141 Y120.524 E35.81917
G1 X119.14 Y93.86 E36.70601
G1 X115.861 Y93.86 E36.81507
G1 X115.859 Y120.525 E37.70196
G1 X115.821 Y120.836 E37.71238
G1 X115.722 Y121.098 E37.72169
G1 X115.469 Y121.452 E37.73616
G1 X115.184 Y121.676 E37.74822
G1 X114.942 Y121.782 E37.75701
G1 X114.523 Y121.859 E37.77118
G1 X106.86 Y121.86 E38.02605
G1 X106.861 Y141.139 E38.66727
G0 F6000 X107.562 Y140.938
G1 F1200 X107.06 Y140.435 E38.69091
G0 F6000 X107.06 Y139.869
G1 F1200 X108.128 Y140.938 E38.74117
G0 F6000 X108.694 Y140.938
G1 F1200 X107.06 Y139.304 E38.81803
G0 F6000 X107.06 Y138.738
G1 F1200 X109.26 Y140.938 E38.92151
G0 F6000 X109.825 Y140.938
G1 F1200 X107.06 Y138.172 E39.05159
G0 F6000 X107.06 Y137.607
G1 F1200 X110.391 Y140.938 E39.20827
G0 F6000 X110.957 Y140.938
G1 F1200 X107.06 Y137.041 E39.39157
G0 F6000 X107.06 Y136.475
G1 F1200 X111.522 Y140.938 E39.60147
G0 F6000 X112.088 Y140.938
G1 F1200 X107.06 Y135.91 E39.83797
G0 F6000 X107.06 Y135.344
G1 F1200 X112.654 Y140.938 E40.1011
G0 F6000 X113.219 Y140.938
G1 F1200 X107.06 Y134.778 E40.39082
G0 F6000 X107.06 Y134.213
G1 F1200 X113.785 Y140.938 E40.70715
G0 F6000 X114.351 Y140.938
G1 F1200 X107.06 Y133.647 E41.05009
G0 F6000 X107.06 Y133.081
G1 F1200 X114.916 Y140.938 E41.41964
G0 F6000 X115.482 Y140.938
G1 F1200 X107.06 Y132.516 E41.81578
G0 F6000 X107.06 Y131.95
G1 F1200 X116.048 Y140.938 E42.23855
G0 F6000 X116.613 Y140.938
G1 F1200 X107.06 Y131.384 E42.68792
G0 F6000 X107.06 Y130.818
G1 F1200 X117.179 Y140.938 E43.16391
G0 F6000 X117.745 Y140.938
G1 F1200 X107.06 Y130.253 E43.6665
G0 F6000 X107.06 Y129.687
G1 F1200 X118.31 Y140.938 E44.19569
G0 F6000 X118.876 Y140.938
G1 F1200 X107.06 Y129.121 E44.7515
G0 F6000 X107.06 Y128.556
G1 F1200 X119.442 Y140.938 E45.33391
G0 F6000 X120.008 Y140.938
G1 F1200 X107.06 Y127.99 E45.94294
G0 F6000 X107.06 Y127.424
G1 F1200 X120.573 Y140.938 E46.57858
G0 F6000 X121.139 Y140.938
G1 F1200 X107.06 Y126.859 E47.24081
G0 F6000 X107.06 Y126.293
G1 F1200 X121.705 Y140.938 E47.92967
G0 F6000 X122.27 Y140.938
G1 F1200 X107.06 Y125.727 E48.64512
G0 F6000 X107.06 Y125.162
G1 F1200 X122.836 Y140.938 E49.38718
G0 F6000 X123.402 Y140.938
G1 F1200 X107.06 Y124.596 E50.15585
G0 F6000 X107.06 Y124.03
G1 F1200 X123.967 Y140.938 E50.95113
G0 F6000 X124.533 Y140.938
G1 F1200 X107.06 Y123.465 E51.77301
G0 F6000 X107.06 Y122.899
G1 F1200 X125.099 Y140.938 E52.62151
G0 F6000 X125.664 Y140.938
G1 F1200 X107.06 Y122.333 E53.49661
G0 F6000 X107.351 Y122.059
G1 F1200 X126.23 Y140.938 E54.38462
G0 F6000 X126.796 Y140.938
G1 F1200 X107.917 Y122.059 E55.27263
G0 F6000 X108.482 Y122.059
G1 F1200 X127.361 Y140.938 E56.16064
G0 F6000 X127.927 Y140.938
G1 F1200 X109.047 Y122.058 E57.04869
G0 F6000 X109.613 Y122.058
G1 F1200 X127.939 Y140.384 E57.91069
G0 F6000 X127.939 Y139.819
G1 F1200 X110.178 Y122.057 E58.74614
G0 F6000 X110.744 Y122.057
G1 F1200 X127.939 Y139.253 E59.55496
G0 F6000 X127.939 Y138.687
G1 F1200 X111.309 Y122.057 E60.33719
G0 F6000 X111.874 Y122.057
G1 F1200 X127.939 Y138.121 E61.09281
G0 F6000 X127.939 Y137.556
G1 F1200 X112.44 Y122.057 E61.82184
