;FLAVOR:Marlin
;TIME:3842
;Filament used: 4.2715m
;Layer height: 0.28
;MINX:70.433
;MINY:52.582
;MINZ:0.28
;MAXX:164.585
;MAXY:182.44
;MAXZ:17.08
;Generated with Cura_SteamEngine 5.0.0
M140 S60
M105
M190 S60
M104 S200
M105
M109 S200
M82 ;absolute extrusion mode
; Ender 3 Custom Start G-code
G92 E0 ; Reset Extruder
G28 ; Home all axes
G1 Z2.0 F3000 ; Move Z Axis up little to prevent scratching of Heat Bed
G1 X0.1 Y20 Z0.3 F5000.0 ; Move to start position
G1 X0.1 Y200.0 Z0.3 F1500.0 E15 ; Draw the first line
G1 X0.4 Y200.0 Z0.3 F5000.0 ; Move to side a little
G1 X0.4 Y20 Z0.3 F1500.0 E30 ; Draw the second line
G92 E0 ; Reset Extruder
G1 Z2.0 F3000 ; Move Z Axis up little to prevent scratching of Heat Bed
G1 X5 Y20 Z0.3 F5000.0 ; Move over to prevent blob squish
G92 E0
G92 E0
G1 F2700 E-5
;LAYER_COUNT:61
;LAYER:0
M107
G0 F6000 X80.821 Y57.263 Z0.28
G0 X78.899 Y62.173
;TYPE:SKIRT
G1 F2700 E0
G1 F1200 X79.015 Y61.554 E0.02932
G1 X79.227 Y60.64 E0.07301
G1 X79.516 Y59.748 E0.11668
G1 X79.88 Y58.884 E0.16033
G1 X80.316 Y58.053 E0.20403
G1 X80.821 Y57.263 E0.24769
G1 X81.392 Y56.519 E0.29136
G1 X82.024 Y55.826 E0.33503
G1 X82.713 Y55.19 E0.37869
G1 X83.454 Y54.614 E0.4224
G1 X84.241 Y54.104 E0.46606
G1 X85.068 Y53.663 E0.50971
G1 X85.93 Y53.293 E0.55338
G1 X86.821 Y52.999 E0.59707
G1 X87.733 Y52.781 E0.64074
G1 X88.661 Y52.642 E0.68443
G1 X89.596 Y52.582 E0.72806
G1 X90.534 Y52.603 E0.77175
G1 X91.493 Y52.707 E0.81666
G1 X93.087 Y52.956 E0.89179
G1 X93.787 Y53.085 E0.92493
G1 X94.701 Y53.294 E0.96859
G1 X95.856 Y53.681 E1.02531
G1 X97.56 Y54.366 E1.11082
G1 X99.882 Y55.25 E1.22652
G1 X102.286 Y56.088 E1.34506
G1 X104.659 Y56.841 E1.46099
G1 X107.105 Y57.541 E1.57946
G1 X109.541 Y58.165 E1.69655
G1 X112.015 Y58.724 E1.81465
G1 X114.456 Y59.203 E1.93049
G1 X116.943 Y59.619 E2.0479
G1 X119.425 Y59.963 E2.16458
G1 X121.956 Y60.24 E2.28313
G1 X124.432 Y60.44 E2.3988
G1 X126.962 Y60.574 E2.51678
G1 X129.485 Y60.635 E2.63429
G1 X131.97 Y60.626 E2.75
G1 X135.607 Y60.488 E2.91948
G1 X136.252 Y60.455 E2.94955
G1 X136.915 Y60.44 E2.98043
G1 X153.036 Y60.441 E3.73109
G1 X153.734 Y60.451 E3.7636
G1 X154.67 Y60.505 E3.80726
G1 X155.598 Y60.637 E3.8509
G1 X156.512 Y60.849 E3.89459
G1 X157.404 Y61.138 E3.93825
G1 X158.269 Y61.501 E3.98193
G1 X159.099 Y61.937 E4.02559
G1 X159.89 Y62.442 E4.06929
G1 X160.634 Y63.013 E4.11296
G1 X161.327 Y63.645 E4.15663
G1 X161.964 Y64.333 E4.20029
G1 X162.539 Y65.074 E4.24397
G1 X163.05 Y65.86 E4.28762
G1 X163.492 Y66.688 E4.33132
G1 X163.861 Y67.55 E4.37499
G1 X164.156 Y68.44 E4.41864
G1 X164.374 Y69.352 E4.46231
G1 X164.514 Y70.28 E4.50601
G1 X164.572 Y71.141 E4.54619
G1 X164.585 Y71.77 E4.57549
G1 X164.584 Y170.84 E9.1886
G1 X164.575 Y171.567 E9.22245
G1 X164.524 Y172.504 E9.26615
G1 X164.392 Y173.432 E9.3098
G1 X164.183 Y174.346 E9.35345
G1 X163.896 Y175.239 E9.39713
G1 X163.534 Y176.105 E9.44084
G1 X163.1 Y176.936 E9.48449
G1 X162.596 Y177.727 E9.52816
G1 X162.027 Y178.472 E9.57182
G1 X161.396 Y179.167 E9.61553
G1 X160.709 Y179.805 E9.65918
G1 X159.97 Y180.382 E9.70284
G1 X159.184 Y180.894 E9.74652
G1 X158.358 Y181.337 E9.79016
G1 X157.496 Y181.709 E9.83388
G1 X156.607 Y182.005 E9.87751
G1 X155.695 Y182.225 E9.9212
G1 X154.768 Y182.366 E9.96486
G1 X153.884 Y182.427 E10.00612
G1 X153.255 Y182.44 E10.03541
G1 X137.13 Y182.439 E10.78626
G1 X136.449 Y182.429 E10.81797
G1 X135.513 Y182.375 E10.86163
G1 X134.585 Y182.242 E10.90528
G1 X133.671 Y182.03 E10.94897
G1 X132.779 Y181.741 E10.99263
G1 X131.915 Y181.377 E11.03629
G1 X131.084 Y180.941 E11.07999
G1 X130.294 Y180.435 E11.12367
G1 X129.55 Y179.865 E11.16731
G1 X128.857 Y179.233 E11.21099
G1 X128.11 Y178.411 E11.26271
G1 X127.542 Y177.664 E11.3064
G1 X127.041 Y176.871 E11.35008
G1 X126.608 Y176.039 E11.39375
G1 X126.206 Y175.057 E11.44316
G1 X125.84 Y174.023 E11.49424
G1 X124.963 Y171.652 E11.61195
G1 X124.016 Y169.299 E11.73006
G1 X123.001 Y166.972 E11.84827
G1 X121.939 Y164.711 E11.96459
G1 X120.808 Y162.473 E12.08135
G1 X119.616 Y160.269 E12.19803
G1 X118.343 Y158.067 E12.31646
G1 X117.025 Y155.927 E12.43349
G1 X115.634 Y153.809 E12.55148
G1 X114.217 Y151.777 E12.66684
G1 X112.698 Y149.725 E12.78572
G1 X111.162 Y147.77 E12.90149
G1 X109.532 Y145.809 E13.02022
G1 X107.874 Y143.927 E13.13701
G1 X106.174 Y142.103 E13.25312
G1 X104.403 Y140.308 E13.37053
G1 X102.587 Y138.57 E13.48758
G1 X100.686 Y136.85 E13.60695
G1 X98.802 Y135.24 E13.72235
G1 X96.84 Y133.656 E13.83977
G1 X94.83 Y132.127 E13.95736
G1 X92.785 Y130.66 E14.07455
G1 X90.711 Y129.258 E14.19112
G1 X88.584 Y127.907 E14.30845
G1 X86.422 Y126.62 E14.42561
G1 X84.201 Y125.378 E14.5441
G1 X82 Y124.231 E14.65967
G1 X79.713 Y123.118 E14.77811
G1 X77.501 Y122.116 E14.89118
G1 X77.012 Y121.902 E14.91604
G1 X76.169 Y121.49 E14.95973
G1 X75.365 Y121.007 E15.0034
G1 X74.606 Y120.457 E15.04705
G1 X73.895 Y119.845 E15.09073
G1 X73.24 Y119.174 E15.13439
G1 X72.643 Y118.45 E15.17809
G1 X72.111 Y117.678 E15.22174
G1 X71.647 Y116.863 E15.26541
G1 X71.253 Y116.012 E15.30908
G1 X70.934 Y115.13 E15.35275
G1 X70.69 Y114.224 E15.39644
G1 X70.525 Y113.301 E15.4401
G1 X70.439 Y112.367 E15.48378
G1 X70.433 Y111.429 E15.52746
G1 X70.545 Y110.215 E15.58423
G1 X70.645 Y109.562 E15.61499
G1 X74.002 Y90.295 E16.52566
G1 X74.366 Y88.366 E16.61706
G1 X74.469 Y87.857 E16.64125
G1 X74.905 Y85.345 E16.75996
G1 X75.215 Y83.32 E16.85535
G1 X78.899 Y62.173 E17.85488
G0 F6000 X79.292 Y62.247
G1 F1200 X79.408 Y61.628 E17.8842
G1 X79.617 Y60.731 E17.92709
G1 X79.903 Y59.856 E17.96995
G1 X80.263 Y59.009 E18.01281
G1 X80.696 Y58.196 E18.0557
G1 X81.198 Y57.424 E18.09858
G1 X81.764 Y56.698 E18.14144
G1 X82.392 Y56.025 E18.18431
G1 X83.076 Y55.408 E18.2272
G1 X83.81 Y54.853 E18.27005
G1 X84.59 Y54.364 E18.31292
G1 X85.41 Y53.944 E18.35582
G1 X86.262 Y53.597 E18.39865
G1 X87.142 Y53.326 E18.44153
G1 X88.042 Y53.131 E18.48441
G1 X88.955 Y53.016 E18.52726
G1 X89.875 Y52.98 E18.57013
G1 X90.795 Y53.024 E18.61302
G1 X91.433 Y53.102 E18.64295
G1 X93.014 Y53.35 E18.71746
G1 X93.714 Y53.479 E18.75061
G1 X94.611 Y53.685 E18.79346
G1 X95.709 Y54.053 E18.84739
G1 X97.37 Y54.721 E18.93075
G1 X99.787 Y55.641 E19.05117
G1 X102.138 Y56.46 E19.1671
G1 X104.565 Y57.231 E19.28567
G1 X107.001 Y57.928 E19.40366
G1 X109.426 Y58.549 E19.52022
G1 X111.921 Y59.113 E19.63933
G1 X114.384 Y59.596 E19.7562
G1 X116.893 Y60.016 E19.87465
G1 X119.394 Y60.362 E19.99222
G1 X121.917 Y60.638 E20.1104
G1 X124.415 Y60.841 E20.2271
G1 X126.931 Y60.973 E20.34442
G1 X129.478 Y61.035 E20.46305
G1 X131.986 Y61.026 E20.57984
G1 X135.593 Y60.889 E20.74792
G1 X136.264 Y60.855 E20.7792
G1 X136.915 Y60.84 E20.80952
G1 X153.03 Y60.841 E21.5599
G1 X153.728 Y60.851 E21.59241
G1 X154.647 Y60.904 E21.63527
G1 X155.558 Y61.037 E21.67814
G1 X156.454 Y61.248 E21.72101
G1 X157.328 Y61.536 E21.76385
G1 X158.175 Y61.899 E21.80676
G1 X158.986 Y62.334 E21.84962
G1 X159.756 Y62.838 E21.89247
G1 X160.48 Y63.407 E21.93535
G1 X161.152 Y64.037 E21.97824
G1 X161.767 Y64.722 E22.0211
G1 X162.32 Y65.458 E22.06397
G1 X162.807 Y66.239 E22.10683
G1 X163.224 Y67.06 E22.14971
G1 X163.569 Y67.914 E22.19259
G1 X163.838 Y68.794 E22.23544
G1 X164.03 Y69.695 E22.27834
G1 X164.143 Y70.608 E22.32118
G1 X164.181 Y71.472 E22.36145
G1 X164.184 Y170.835 E26.9882
G1 X164.175 Y171.562 E27.02206
G1 X164.124 Y172.481 E27.06492
G1 X163.993 Y173.393 E27.10782
G1 X163.783 Y174.289 E27.15067
G1 X163.497 Y175.164 E27.19354
G1 X163.136 Y176.011 E27.23641
G1 X162.702 Y176.823 E27.27928
G1 X162.2 Y177.595 E27.32216
G1 X161.632 Y178.32 E27.36505
G1 X161.004 Y178.993 E27.40791
G1 X160.32 Y179.609 E27.45077
G1 X159.585 Y180.163 E27.49363
G1 X158.805 Y180.652 E27.5365
G1 X157.985 Y181.071 E27.57937
G1 X157.132 Y181.417 E27.62224
G1 X156.252 Y181.688 E27.66511
G1 X155.352 Y181.881 E27.70797
G1 X154.438 Y181.996 E27.75087
G1 X153.873 Y182.027 E27.77722
G1 X153.255 Y182.04 E27.806
G1 X137.136 Y182.039 E28.55657
G1 X136.455 Y182.029 E28.58828
G1 X135.536 Y181.975 E28.63115
G1 X134.625 Y181.842 E28.67402
G1 X133.729 Y181.631 E28.71688
G1 X132.855 Y181.342 E28.75974
G1 X132.009 Y180.979 E28.80261
G1 X131.198 Y180.544 E28.84546
G1 X130.427 Y180.04 E28.88836
G1 X129.704 Y179.47 E28.93123
G1 X129.032 Y178.841 E28.97409
G1 X128.418 Y178.155 E29.01695
G1 X127.861 Y177.422 E29.05982
G1 X127.371 Y176.643 E29.10268
G1 X126.949 Y175.824 E29.14558
G1 X126.584 Y174.923 E29.19084
G1 X126.259 Y174.003 E29.23628
G1 X125.328 Y171.489 E29.36111
G1 X124.382 Y169.138 E29.47911
G1 X123.372 Y166.821 E29.5968
G1 X122.293 Y164.525 E29.71493
G1 X121.167 Y162.296 E29.83122
G1 X119.957 Y160.058 E29.94968
G1 X118.688 Y157.863 E30.06774
G1 X117.367 Y155.72 E30.18496
G1 X115.97 Y153.59 E30.30358
G1 X114.534 Y151.533 E30.42039
G1 X113.035 Y149.507 E30.53774
G1 X111.451 Y147.49 E30.65716
G1 X109.856 Y145.572 E30.77332
G1 X108.184 Y143.674 E30.8911
G1 X106.434 Y141.797 E31.01059
G1 X104.699 Y140.039 E31.12561
G1 X102.832 Y138.251 E31.24598
G1 X100.986 Y136.58 E31.36192
G1 X99.028 Y134.908 E31.48181
G1 X97.093 Y133.345 E31.59764
G1 X95.077 Y131.812 E31.71557
G1 X93.02 Y130.336 E31.83346
G1 X90.919 Y128.916 E31.95154
G1 X88.782 Y127.559 E32.06941
G1 X86.601 Y126.26 E32.18762
G1 X84.443 Y125.055 E32.30271
G1 X82.153 Y123.86 E32.42299
G1 X79.903 Y122.766 E32.53948
G1 X77.679 Y121.758 E32.65318
G1 X77.172 Y121.536 E32.67895
G1 X76.346 Y121.13 E32.72181
G1 X75.558 Y120.654 E32.76468
G1 X74.814 Y120.112 E32.80754
G1 X74.12 Y119.507 E32.85041
G1 X73.481 Y118.844 E32.89329
G1 X72.902 Y118.128 E32.93617
G1 X72.388 Y117.365 E32.979
G1 X71.941 Y116.56 E33.02188
G1 X71.566 Y115.719 E33.06476
G1 X71.266 Y114.848 E33.10765
G1 X71.042 Y113.955 E33.15052
G1 X70.896 Y113.046 E33.19339
G1 X70.83 Y112.128 E33.23625
G1 X70.844 Y111.207 E33.27914
G1 X70.94 Y110.274 E33.32281
G1 X71.039 Y109.63 E33.35315
G1 X74.395 Y90.369 E34.26354
G1 X74.759 Y88.445 E34.35472
G1 X74.855 Y87.968 E34.37737
G1 X75.305 Y85.377 E34.49983
G1 X75.609 Y83.388 E34.59352
G1 X79.292 Y62.247 E35.59276
G0 F6000 X79.686 Y62.32
G1 F1200 X79.802 Y61.701 E35.62208
G1 X80.007 Y60.822 E35.66411
G1 X80.289 Y59.964 E35.70617
G1 X80.647 Y59.135 E35.74821
G1 X81.076 Y58.34 E35.79028
G1 X81.574 Y57.586 E35.83235
G1 X82.136 Y56.88 E35.87437
G1 X82.759 Y56.226 E35.91643
G1 X83.437 Y55.63 E35.95846
G1 X84.165 Y55.095 E36.00053
G1 X84.938 Y54.628 E36.04259
G1 X85.749 Y54.231 E36.08463
G1 X86.592 Y53.907 E36.12668
G1 X87.46 Y53.658 E36.16873
G1 X88.347 Y53.488 E36.21079
G1 X89.246 Y53.397 E36.25286
G1 X90.149 Y53.385 E36.29491
G1 X91.372 Y53.498 E36.3521
G1 X92.942 Y53.743 E36.42609
G1 X93.642 Y53.872 E36.45924
G1 X94.522 Y54.075 E36.50129
G1 X95.561 Y54.424 E36.55233
G1 X97.267 Y55.11 E36.63795
G1 X99.618 Y56.005 E36.75508
G1 X102.022 Y56.843 E36.87363
G1 X104.471 Y57.621 E36.99328
G1 X106.864 Y58.305 E37.10917
G1 X109.344 Y58.941 E37.22839
G1 X111.862 Y59.509 E37.34858
G1 X114.313 Y59.99 E37.46489
G1 X116.805 Y60.407 E37.58254
G1 X119.371 Y60.763 E37.70317
G1 X121.839 Y61.033 E37.81877
G1 X124.398 Y61.24 E37.93832
G1 X126.936 Y61.374 E38.05667
G1 X129.469 Y61.435 E38.17465
G1 X131.973 Y61.426 E38.29124
G1 X135.682 Y61.285 E38.46408
G1 X136.276 Y61.255 E38.49177
G1 X136.915 Y61.24 E38.52153
G1 X153.024 Y61.241 E39.27164
G1 X153.722 Y61.251 E39.30414
G1 X154.624 Y61.304 E39.34621
G1 X155.517 Y61.436 E39.38825
G1 X156.395 Y61.647 E39.43029
G1 X157.251 Y61.935 E39.47235
G1 X158.078 Y62.297 E39.51439
G1 X158.87 Y62.732 E39.55646
G1 X159.621 Y63.234 E39.59852
G1 X160.324 Y63.801 E39.64058
G1 X160.974 Y64.428 E39.68263
G1 X161.566 Y65.11 E39.72468
G1 X162.096 Y65.841 E39.76673
G1 X162.558 Y66.617 E39.80878
G1 X162.951 Y67.43 E39.85083
G1 X163.269 Y68.275 E39.89287
G1 X163.512 Y69.145 E39.93493
G1 X163.677 Y70.033 E39.97699
G1 X163.772 Y71.163 E40.02979
G1 X163.785 Y71.77 E40.05806
G1 X163.784 Y170.83 E44.67071
G1 X163.775 Y171.557 E44.70456
G1 X163.724 Y172.459 E44.74663
G1 X163.593 Y173.353 E44.78871
G1 X163.384 Y174.231 E44.83073
G1 X163.098 Y175.088 E44.8728
G1 X162.737 Y175.916 E44.91486
G1 X162.305 Y176.708 E44.95687
G1 X161.804 Y177.46 E44.99894
G1 X161.238 Y178.164 E45.04101
G1 X160.613 Y178.815 E45.08303
G1 X159.932 Y179.409 E45.12511
G1 X159.201 Y179.94 E45.16718
G1 X158.427 Y180.404 E45.2092
G1 X157.614 Y180.798 E45.25127
G1 X156.77 Y181.118 E45.2933
G1 X155.9 Y181.363 E45.33538
G1 X155.013 Y181.529 E45.3774
G1 X153.862 Y181.627 E45.43119
G1 X153.255 Y181.64 E45.45946
G1 X137.142 Y181.639 E46.20975
G1 X136.461 Y181.629 E46.24146
G1 X135.56 Y181.576 E46.28349
G1 X134.666 Y181.443 E46.32558
G1 X133.788 Y181.232 E46.36763
G1 X132.932 Y180.944 E46.40968
G1 X132.105 Y180.581 E46.45173
G1 X131.314 Y180.146 E46.49377
G1 X130.563 Y179.644 E46.53583
G1 X129.861 Y179.077 E46.57785
G1 X129.211 Y178.45 E46.6199
G1 X128.725 Y177.9 E46.65408
G1 X128.18 Y177.18 E46.69613
G1 X127.701 Y176.415 E46.73816
G1 X127.291 Y175.61 E46.78022
G1 X126.961 Y174.79 E46.82138
G1 X126.634 Y173.864 E46.86711
G1 X125.692 Y171.318 E46.99352
G1 X124.757 Y168.995 E47.11012
G1 X123.743 Y166.67 E47.22823
G1 X122.655 Y164.354 E47.34738
G1 X121.518 Y162.104 E47.46476
G1 X120.304 Y159.858 E47.58365
G1 X119.026 Y157.647 E47.70256
G1 X117.715 Y155.521 E47.81887
G1 X116.299 Y153.363 E47.93905
G1 X114.868 Y151.312 E48.0555
G1 X113.339 Y149.246 E48.17519
G1 X111.789 Y147.273 E48.29202
G1 X110.148 Y145.298 E48.41158
G1 X108.46 Y143.383 E48.53045
G1 X106.729 Y141.526 E48.64866
G1 X104.978 Y139.751 E48.76476
G1 X103.111 Y137.964 E48.8851
G1 X101.25 Y136.28 E49.00197
G1 X99.294 Y134.609 E49.12176
G1 X97.319 Y133.014 E49.23997
G1 X95.33 Y131.501 E49.35633
G1 X93.231 Y129.995 E49.47663
G1 X91.136 Y128.58 E49.59434
G1 X89.011 Y127.23 E49.71157
G1 X86.805 Y125.916 E49.83114
G1 X84.617 Y124.694 E49.94783
G1 X82.334 Y123.503 E50.06773
G1 X80.064 Y122.399 E50.18527
G1 X77.894 Y121.416 E50.2962
G1 X77.333 Y121.17 E50.32472
G1 X76.522 Y120.771 E50.36681
G1 X75.75 Y120.302 E50.40887
G1 X75.023 Y119.767 E50.4509
G1 X74.346 Y119.169 E50.49296
G1 X73.724 Y118.514 E50.53502
G1 X73.163 Y117.807 E50.57705
G1 X72.666 Y117.053 E50.6191
G1 X72.238 Y116.257 E50.66118
G1 X71.883 Y115.427 E50.70322
G1 X71.601 Y114.569 E50.74527
G1 X71.397 Y113.689 E50.78734
G1 X71.272 Y112.795 E50.82937
G1 X71.226 Y111.893 E50.87142
G1 X71.26 Y110.99 E50.9135
G1 X71.336 Y110.332 E50.94434
G1 X71.433 Y109.699 E50.97416
G1 X74.788 Y90.443 E51.88431
G1 X75.151 Y88.524 E51.97525
G1 X75.249 Y88.038 E51.99834
G1 X75.696 Y85.463 E52.12003
G1 X76.003 Y83.457 E52.21453
G1 X79.686 Y62.32 E53.21359
G1 F2700 E48.21359
;MESH:Sorting Bay.stl
G0 F6000 X89.29 Y62.808
G0 X92.224 Y63.302
G0 X135.92 Y73.443
G0 X137.804 Y73.443
G0 X137.975 Y169.44
G1 F2700 E53.21359
G0 F6000 X138.385 Y169.44
;TYPE:WALL-OUTER
G1 F1200 X138.385 Y73.44 E57.68375
G1 X138.443 Y73.298 E57.69089
G1 X138.585 Y73.24 E57.69803
G1 X147.585 Y73.24 E58.11711
G1 X147.706 Y73.279 E58.12303
G1 X147.785 Y73.44 E58.13138
G1 X147.785 Y169.44 E62.60154
G1 X147.705 Y169.601 E62.60991
G1 X147.585 Y169.64 E62.61579
G1 X138.585 Y169.64 E63.03487
G1 X138.443 Y169.582 E63.04201
G1 X138.385 Y169.44 E63.04915
G0 F6000 X138.585 Y170.04
;TYPE:WALL-INNER
G1 F1200 X138.16 Y169.865 E63.07055
G1 X137.993 Y169.544 E63.0874
G1 X137.985 Y169.44 E63.09226
G1 X137.985 Y73.44 E67.56242
G1 X138.16 Y73.015 E67.58382
G1 X138.481 Y72.848 E67.60067
G1 X138.585 Y72.84 E67.60553
G1 X147.585 Y72.84 E68.02461
G1 X147.946 Y72.959 E68.04231
G1 X148.139 Y73.209 E68.05701
G1 X148.185 Y73.44 E68.06798
G1 X148.185 Y169.44 E72.53814
G1 X148.139 Y169.672 E72.54916
G1 X147.945 Y169.921 E72.56385
G1 X147.689 Y170.032 E72.57685
G1 X147.585 Y170.04 E72.5817
G1 X138.585 Y170.04 E73.00078
G1 F2700 E68.00078
G0 F6000 X138.585 Y170.05
G0 X138.031 Y169.993
G0 X138.028 Y170.658
G0 X137.165 Y170.86
G1 F2700 E73.00078
G0 F6000 X136.786 Y171.239
;TYPE:WALL-OUTER
G1 F1200 X153.385 Y171.24 E73.7737
G1 X153.385 Y71.64 E78.41149
G1 X136.786 Y71.641 E79.18441
G1 X136.783 Y119.474 E81.41172
G1 X136.669 Y119.621 E81.42038
G1 X136.55 Y119.637 E81.42597
G1 X83.693 Y110.405 E83.92447
G1 X83.564 Y110.323 E83.93159
G1 X83.53 Y110.172 E83.9388
G1 X86.362 Y93.915 E84.70719
G1 X86.443 Y93.787 E84.71425
