;FLAVOR:Marlin
;TIME:11332
;Filament used: 6.9204m
;Layer height: 0.16
;MINX:70.433
;MINY:52.581
;MINZ:0.2
;MAXX:164.585
;MAXY:182.44
;MAXZ:16.88
;Generated with Cura_SteamEngine 5.0.0
M140 S50
M105
M190 S50
M104 S200
M105
M109 S200
M82 ;absolute extrusion mode
; Ender 3 Custom Start G-code
G92 E0 ; Reset Extruder
G28 ; Home all axes
G1 Z2.0 F3000 ; Move Z Axis up little to prevent scratching of Heat Bed
G1 X0.1 Y20 Z0.3 F5000.0 ; Move to start position
G1 X0.1 Y200.0 Z0.3 F1500.0 E15 ; Draw the first line
G1 X0.4 Y200.0 Z0.3 F5000.0 ; Move to side a little
G1 X0.4 Y20 Z0.3 F1500.0 E30 ; Draw the second line
G92 E0 ; Reset Extruder
G1 Z2.0 F3000 ; Move Z Axis up little to prevent scratching of Heat Bed
G1 X5 Y20 Z0.3 F5000.0 ; Move over to prevent blob squish
G92 E0
G92 E0
G1 F2700 E-5
;LAYER_COUNT:97
;LAYER:0
M107
G0 F6000 X80.82 Y57.264 Z0.2
G0 X78.895 Y62.196
;TYPE:SKIRT
G1 F2700 E0
G1 F1200 X79.015 Y61.555 E0.02169
G1 X79.227 Y60.641 E0.0529
G1 X79.515 Y59.749 E0.08407
G1 X79.879 Y58.884 E0.11529
G1 X80.315 Y58.054 E0.14647
G1 X80.82 Y57.264 E0.17765
G1 X81.391 Y56.52 E0.20885
G1 X82.023 Y55.827 E0.24004
G1 X82.712 Y55.19 E0.27125
G1 X83.452 Y54.615 E0.30242
G1 X84.239 Y54.104 E0.33363
G1 X85.066 Y53.663 E0.3648
G1 X85.928 Y53.293 E0.396
G1 X86.819 Y52.998 E0.42722
G1 X87.731 Y52.781 E0.4584
G1 X88.658 Y52.641 E0.48958
G1 X89.594 Y52.581 E0.52078
G1 X90.532 Y52.602 E0.55198
G1 X91.437 Y52.697 E0.58225
G1 X92.554 Y52.865 E0.61982
G1 X130.096 Y59.191 E1.88607
G1 X132.628 Y59.581 E1.97128
G1 X135.182 Y59.901 E2.05689
G1 X137.628 Y60.137 E2.13862
G1 X140.191 Y60.311 E2.22407
G1 X142.68 Y60.41 E2.30692
G1 X145.018 Y60.44 E2.38468
G1 X153.051 Y60.441 E2.65186
G1 X153.749 Y60.452 E2.67508
G1 X154.686 Y60.507 E2.7063
G1 X155.614 Y60.641 E2.73749
G1 X156.527 Y60.854 E2.76867
G1 X157.419 Y61.144 E2.79986
G1 X158.283 Y61.509 E2.83106
G1 X159.113 Y61.946 E2.86226
G1 X159.902 Y62.452 E2.89343
G1 X160.646 Y63.024 E2.92465
G1 X161.338 Y63.657 E2.95584
G1 X161.974 Y64.346 E2.98703
G1 X162.549 Y65.088 E3.01825
G1 X163.058 Y65.875 E3.04942
G1 X163.499 Y66.703 E3.08062
G1 X163.867 Y67.565 E3.1118
G1 X164.16 Y68.456 E3.14299
G1 X164.377 Y69.369 E3.17421
G1 X164.515 Y70.296 E3.20538
G1 X164.572 Y71.141 E3.23355
G1 X164.585 Y71.77 E3.25447
G1 X164.584 Y170.84 E6.54955
G1 X164.575 Y171.567 E6.57374
G1 X164.524 Y172.504 E6.60495
G1 X164.392 Y173.432 E6.63612
G1 X164.183 Y174.346 E6.66731
G1 X163.896 Y175.239 E6.6985
G1 X163.534 Y176.105 E6.72972
G1 X163.1 Y176.936 E6.7609
G1 X162.596 Y177.727 E6.7921
G1 X162.027 Y178.472 E6.82328
G1 X161.396 Y179.167 E6.8545
G1 X160.709 Y179.805 E6.88568
G1 X159.97 Y180.382 E6.91687
G1 X159.184 Y180.894 E6.94807
G1 X158.358 Y181.337 E6.97924
G1 X157.496 Y181.709 E7.01047
G1 X156.607 Y182.005 E7.04163
G1 X155.695 Y182.225 E7.07284
G1 X154.768 Y182.366 E7.10402
G1 X153.884 Y182.427 E7.13349
G1 X153.255 Y182.44 E7.15442
G1 X137.13 Y182.439 E7.69074
G1 X136.449 Y182.429 E7.71339
G1 X135.513 Y182.375 E7.74457
G1 X134.585 Y182.242 E7.77576
G1 X133.671 Y182.03 E7.80696
G1 X132.779 Y181.741 E7.83815
G1 X131.915 Y181.377 E7.86933
G1 X131.084 Y180.941 E7.90054
G1 X130.294 Y180.435 E7.93175
G1 X129.55 Y179.865 E7.96292
G1 X128.857 Y179.233 E7.99412
G1 X128.11 Y178.411 E8.03106
G1 X127.542 Y177.664 E8.06227
G1 X127.041 Y176.871 E8.09347
G1 X126.608 Y176.039 E8.12466
G1 X126.206 Y175.057 E8.15996
G1 X125.84 Y174.023 E8.19644
G1 X124.963 Y171.652 E8.28052
G1 X124.016 Y169.299 E8.36488
G1 X123.001 Y166.972 E8.44932
G1 X121.939 Y164.711 E8.5324
G1 X120.808 Y162.473 E8.6158
G1 X119.616 Y160.269 E8.69914
G1 X118.343 Y158.067 E8.78374
G1 X117.025 Y155.927 E8.86733
G1 X115.634 Y153.809 E8.95161
G1 X114.217 Y151.777 E9.03401
G1 X112.698 Y149.725 E9.11892
G1 X111.162 Y147.77 E9.20161
G1 X109.532 Y145.809 E9.28643
G1 X107.874 Y143.927 E9.36985
G1 X106.174 Y142.103 E9.45278
G1 X104.403 Y140.308 E9.53665
G1 X102.587 Y138.57 E9.62025
G1 X100.686 Y136.85 E9.70552
G1 X98.802 Y135.24 E9.78795
G1 X96.84 Y133.656 E9.87181
G1 X94.83 Y132.127 E9.95581
G1 X92.785 Y130.66 E10.03952
G1 X90.711 Y129.258 E10.12278
G1 X88.584 Y127.907 E10.20659
G1 X86.422 Y126.62 E10.29028
G1 X84.201 Y125.378 E10.37491
G1 X82 Y124.231 E10.45746
G1 X79.713 Y123.118 E10.54206
G1 X77.501 Y122.116 E10.62283
G1 X77.012 Y121.902 E10.64058
G1 X76.169 Y121.49 E10.67179
G1 X75.365 Y121.007 E10.70298
G1 X74.606 Y120.457 E10.73416
G1 X73.895 Y119.845 E10.76536
G1 X73.24 Y119.174 E10.79655
G1 X72.643 Y118.45 E10.82776
G1 X72.111 Y117.678 E10.85894
G1 X71.647 Y116.863 E10.89013
G1 X71.253 Y116.012 E10.92133
G1 X70.934 Y115.13 E10.95252
G1 X70.69 Y114.224 E10.98373
G1 X70.525 Y113.301 E11.01491
G1 X70.439 Y112.367 E11.04611
G1 X70.433 Y111.429 E11.07731
G1 X70.545 Y110.215 E11.11786
G1 X70.645 Y109.562 E11.13983
G1 X74.001 Y90.298 E11.7902
G1 X74.344 Y88.485 E11.85157
G1 X74.444 Y87.998 E11.86811
G1 X74.884 Y85.491 E11.95277
G1 X75.216 Y83.316 E12.02595
G1 X78.895 Y62.196 E12.73898
G0 F6000 X79.288 Y62.269
G1 F1200 X79.408 Y61.628 E12.76067
G1 X79.617 Y60.732 E12.79127
G1 X79.902 Y59.857 E12.82188
G1 X80.263 Y59.009 E12.85253
G1 X80.695 Y58.197 E12.88312
G1 X81.197 Y57.425 E12.91375
G1 X81.763 Y56.699 E12.94437
G1 X82.391 Y56.025 E12.97501
G1 X83.074 Y55.408 E13.00562
G1 X83.809 Y54.853 E13.03625
G1 X84.588 Y54.364 E13.06685
G1 X85.408 Y53.944 E13.09749
G1 X86.261 Y53.597 E13.12812
G1 X87.14 Y53.325 E13.15872
G1 X88.04 Y53.131 E13.18934
G1 X88.953 Y53.015 E13.21995
G1 X89.873 Y52.979 E13.25058
G1 X90.793 Y53.023 E13.28121
G1 X91.378 Y53.093 E13.30081
G1 X92.487 Y53.259 E13.3381
G1 X130.034 Y59.586 E14.60453
G1 X132.589 Y59.979 E14.69051
G1 X135.127 Y60.298 E14.77558
G1 X137.599 Y60.536 E14.85818
G1 X140.149 Y60.709 E14.94319
G1 X142.696 Y60.81 E15.02797
G1 X145.013 Y60.84 E15.10504
G1 X153.045 Y60.841 E15.37219
G1 X153.743 Y60.852 E15.39541
G1 X154.662 Y60.907 E15.42603
G1 X155.573 Y61.041 E15.45665
G1 X156.469 Y61.253 E15.48728
G1 X157.343 Y61.543 E15.5179
G1 X158.188 Y61.907 E15.54851
G1 X158.999 Y62.343 E15.57913
G1 X159.769 Y62.848 E15.60976
G1 X160.492 Y63.418 E15.64038
G1 X161.163 Y64.048 E15.67099
G1 X161.777 Y64.735 E15.70164
G1 X162.328 Y65.472 E15.73224
G1 X162.814 Y66.254 E15.76287
G1 X163.23 Y67.075 E15.79348
G1 X163.574 Y67.929 E15.8241
G1 X163.842 Y68.81 E15.85473
G1 X164.032 Y69.711 E15.88535
G1 X164.144 Y70.624 E15.91595
G1 X164.181 Y71.471 E15.94415
G1 X164.184 Y170.835 E19.24901
G1 X164.175 Y171.562 E19.27319
G1 X164.124 Y172.481 E19.3038
G1 X163.993 Y173.393 E19.33445
G1 X163.783 Y174.289 E19.36506
G1 X163.497 Y175.164 E19.39567
G1 X163.136 Y176.011 E19.4263
G1 X162.702 Y176.823 E19.45692
G1 X162.2 Y177.595 E19.48755
G1 X161.632 Y178.32 E19.51818
G1 X161.004 Y178.993 E19.5488
G1 X160.32 Y179.609 E19.57941
G1 X159.585 Y180.163 E19.61002
G1 X158.805 Y180.652 E19.64064
G1 X157.985 Y181.071 E19.67127
G1 X157.132 Y181.417 E19.70189
G1 X156.252 Y181.688 E19.73251
G1 X155.352 Y181.881 E19.76313
G1 X154.438 Y181.996 E19.79377
G1 X153.873 Y182.027 E19.81259
G1 X153.255 Y182.04 E19.83315
G1 X137.136 Y182.039 E20.36927
G1 X136.455 Y182.029 E20.39192
G1 X135.536 Y181.975 E20.42254
G1 X134.625 Y181.842 E20.45316
G1 X133.729 Y181.631 E20.48378
G1 X132.855 Y181.342 E20.51439
G1 X132.009 Y180.979 E20.54501
G1 X131.198 Y180.544 E20.57562
G1 X130.427 Y180.04 E20.60626
G1 X129.704 Y179.47 E20.63688
G1 X129.032 Y178.841 E20.66749
G1 X128.418 Y178.155 E20.69811
G1 X127.861 Y177.422 E20.72873
G1 X127.371 Y176.643 E20.75934
G1 X126.949 Y175.824 E20.78999
G1 X126.584 Y174.923 E20.82232
G1 X126.259 Y174.003 E20.85477
G1 X125.328 Y171.489 E20.94394
G1 X124.382 Y169.138 E21.02822
G1 X123.372 Y166.821 E21.11229
G1 X122.293 Y164.525 E21.19667
G1 X121.167 Y162.296 E21.27973
G1 X119.957 Y160.058 E21.36435
G1 X118.688 Y157.863 E21.44868
G1 X117.367 Y155.72 E21.53241
G1 X115.97 Y153.59 E21.61713
G1 X114.534 Y151.533 E21.70057
G1 X113.035 Y149.507 E21.78439
G1 X111.451 Y147.49 E21.86969
G1 X109.856 Y145.572 E21.95266
G1 X108.184 Y143.674 E22.03679
G1 X106.434 Y141.797 E22.12214
G1 X104.699 Y140.039 E22.20429
G1 X102.832 Y138.251 E22.29027
G1 X100.986 Y136.58 E22.37309
G1 X99.028 Y134.908 E22.45873
G1 X97.093 Y133.345 E22.54146
G1 X95.077 Y131.812 E22.6257
G1 X93.02 Y130.336 E22.7099
G1 X90.919 Y128.916 E22.79425
G1 X88.782 Y127.559 E22.87844
G1 X86.601 Y126.26 E22.96287
G1 X84.443 Y125.055 E23.04508
G1 X82.153 Y123.86 E23.13099
G1 X79.903 Y122.766 E23.21421
G1 X77.679 Y121.758 E23.29542
G1 X77.172 Y121.536 E23.31383
G1 X76.346 Y121.13 E23.34444
G1 X75.558 Y120.654 E23.37506
G1 X74.814 Y120.112 E23.40568
G1 X74.12 Y119.507 E23.4363
G1 X73.481 Y118.844 E23.46692
G1 X72.902 Y118.128 E23.49755
G1 X72.388 Y117.365 E23.52815
G1 X71.941 Y116.56 E23.55877
G1 X71.566 Y115.719 E23.5894
G1 X71.266 Y114.848 E23.62004
G1 X71.042 Y113.955 E23.65066
G1 X70.896 Y113.046 E23.68128
G1 X70.83 Y112.128 E23.71189
G1 X70.844 Y111.207 E23.74253
G1 X70.94 Y110.274 E23.77373
G1 X71.039 Y109.63 E23.7954
G1 X74.394 Y90.372 E24.44557
G1 X74.736 Y88.565 E24.50674
G1 X74.836 Y88.076 E24.52334
G1 X75.275 Y85.575 E24.60779
G1 X75.61 Y83.384 E24.68151
G1 X79.288 Y62.269 E25.39438
G0 F6000 X79.681 Y62.343
G1 F1200 X79.801 Y61.702 E25.41607
G1 X80.006 Y60.823 E25.44609
G1 X80.289 Y59.965 E25.47613
G1 X80.646 Y59.135 E25.50619
G1 X81.075 Y58.341 E25.5362
G1 X81.573 Y57.587 E25.56626
G1 X82.135 Y56.88 E25.5963
G1 X82.758 Y56.226 E25.62634
G1 X83.436 Y55.63 E25.65636
G1 X84.164 Y55.096 E25.68639
G1 X84.936 Y54.628 E25.71642
G1 X85.747 Y54.23 E25.74647
G1 X86.59 Y53.906 E25.7765
G1 X87.459 Y53.658 E25.80656
G1 X88.345 Y53.487 E25.83657
G1 X89.244 Y53.396 E25.86663
G1 X90.147 Y53.384 E25.89666
G1 X91.32 Y53.489 E25.93583
G1 X92.421 Y53.654 E25.97286
G1 X129.983 Y59.984 E27.23979
G1 X132.514 Y60.373 E27.32496
G1 X135.071 Y60.694 E27.41068
G1 X137.606 Y60.938 E27.49538
G1 X140.106 Y61.108 E27.57872
G1 X142.675 Y61.21 E27.66424
G1 X145.008 Y61.24 E27.74184
G1 X153.039 Y61.241 E28.00895
G1 X153.737 Y61.252 E28.03217
G1 X154.638 Y61.306 E28.06219
G1 X155.531 Y61.44 E28.09222
G1 X156.409 Y61.652 E28.12227
G1 X157.265 Y61.941 E28.15232
G1 X158.091 Y62.305 E28.18234
G1 X158.883 Y62.74 E28.21239
G1 X159.632 Y63.244 E28.24242
G1 X160.335 Y63.812 E28.27248
G1 X160.984 Y64.439 E28.30249
G1 X161.575 Y65.122 E28.33253
G1 X162.104 Y65.854 E28.36257
G1 X162.565 Y66.631 E28.39262
G1 X162.956 Y67.445 E28.42266
G1 X163.274 Y68.29 E28.45269
G1 X163.515 Y69.16 E28.48271
G1 X163.679 Y70.048 E28.51275
G1 X163.772 Y71.163 E28.54996
G1 X163.785 Y71.77 E28.57015
G1 X163.784 Y170.83 E31.8649
G1 X163.775 Y171.557 E31.88908
G1 X163.724 Y172.459 E31.91913
G1 X163.593 Y173.353 E31.94918
G1 X163.384 Y174.231 E31.9792
G1 X163.098 Y175.088 E32.00925
G1 X162.737 Y175.916 E32.0393
G1 X162.305 Y176.708 E32.0693
G1 X161.804 Y177.46 E32.09936
G1 X161.238 Y178.164 E32.1294
G1 X160.613 Y178.815 E32.15942
G1 X159.932 Y179.409 E32.18947
G1 X159.201 Y179.94 E32.21952
G1 X158.427 Y180.404 E32.24954
G1 X157.614 Y180.798 E32.27959
G1 X156.77 Y181.118 E32.30961
G1 X155.9 Y181.363 E32.33967
G1 X155.013 Y181.529 E32.36968
G1 X153.862 Y181.627 E32.4081
G1 X153.255 Y181.64 E32.4283
G1 X137.142 Y181.639 E32.96422
G1 X136.461 Y181.629 E32.98687
G1 X135.56 Y181.576 E33.01689
G1 X134.666 Y181.443 E33.04695
G1 X133.788 Y181.232 E33.07699
G1 X132.932 Y180.944 E33.10702
G1 X132.105 Y180.581 E33.13706
G1 X131.314 Y180.146 E33.16709
G1 X130.563 Y179.644 E33.19713
G1 X129.861 Y179.077 E33.22715
G1 X129.211 Y178.45 E33.25718
G1 X128.725 Y177.9 E33.2816
G1 X128.18 Y177.18 E33.31163
G1 X127.701 Y176.415 E33.34165
G1 X127.291 Y175.61 E33.3717
G1 X126.961 Y174.79 E33.4011
G1 X126.634 Y173.864 E33.43376
G1 X125.692 Y171.318 E33.52405
G1 X124.757 Y168.995 E33.60734
G1 X123.743 Y166.67 E33.6917
G1 X122.655 Y164.354 E33.77681
G1 X121.518 Y162.104 E33.86066
G1 X120.304 Y159.858 E33.94557
G1 X119.026 Y157.647 E34.03051
G1 X117.715 Y155.521 E34.11359
G1 X116.299 Y153.363 E34.19943
G1 X114.868 Y151.312 E34.28261
G1 X113.339 Y149.246 E34.3681
G1 X111.789 Y147.273 E34.45155
G1 X110.148 Y145.298 E34.53695
G1 X108.46 Y143.383 E34.62186
G1 X106.729 Y141.526 E34.7063
G1 X104.978 Y139.751 E34.78922
G1 X103.111 Y137.964 E34.87518
G1 X101.25 Y136.28 E34.95866
G1 X99.294 Y134.609 E35.04422
G1 X97.319 Y133.014 E35.12866
G1 X95.33 Y131.501 E35.21178
G1 X93.231 Y129.995 E35.2977
G1 X91.136 Y128.58 E35.38178
G1 X89.011 Y127.23 E35.46552
G1 X86.805 Y125.916 E35.55092
G1 X84.617 Y124.694 E35.63427
G1 X82.334 Y123.503 E35.71992
G1 X80.064 Y122.399 E35.80388
G1 X77.894 Y121.416 E35.88311
G1 X77.333 Y121.17 E35.90348
G1 X76.522 Y120.771 E35.93355
G1 X75.75 Y120.302 E35.96359
G1 X75.023 Y119.767 E35.99361
G1 X74.346 Y119.169 E36.02365
G1 X73.724 Y118.514 E36.0537
G1 X73.163 Y117.807 E36.08372
G1 X72.666 Y117.053 E36.11375
G1 X72.238 Y116.257 E36.14381
G1 X71.883 Y115.427 E36.17384
G1 X71.601 Y114.569 E36.20388
G1 X71.397 Y113.689 E36.23392
G1 X71.272 Y112.795 E36.26394
G1 X71.226 Y111.893 E36.29398
G1 X71.26 Y110.99 E36.32404
G1 X71.336 Y110.332 E36.34607
G1 X71.433 Y109.699 E36.36737
G1 X74.787 Y90.446 E37.01737
G1 X75.128 Y88.645 E37.07834
G1 X75.23 Y88.147 E37.09524
G1 X75.672 Y85.625 E37.1804
G1 X76.004 Y83.453 E37.25348
G1 X79.681 Y62.343 E37.96618
G1 F2700 E32.96618
;MESH:Sorting Bay.stl
G0 F6000 X89.074 Y63.982
G0 X90.152 Y64.168
G0 X87.333 Y84.69
G0 X128.858 Y92.204
G0 X128.612 Y100.166
G0 X130.351 Y90.189
G0 X137.026 Y91.762
G0 X137.02 Y119.958
G0 X136.462 Y120.139
G1 F2700 E37.96618
G0 F6000 X136.55 Y119.637
;TYPE:WALL-OUTER
G1 F1200 X83.693 Y110.405 E39.75082
G1 X83.564 Y110.323 E39.75591
G1 X83.53 Y110.172 E39.76105
G1 X86.362 Y93.914 E40.30994
G1 X86.443 Y93.786 E40.31498
G1 X86.616 Y93.754 E40.32083
G1 X96.784 Y95.363 E40.66323
G1 X127.054 Y100.158 E41.68256
G1 X128.806 Y100.436 E41.74157
G1 X130.504 Y90.686 E42.07073
G1 X130.597 Y90.55 E42.07621
G1 X130.748 Y90.526 E42.0813
G1 X136.631 Y91.914 E42.28234
G1 X136.732 Y91.971 E42.2862
G1 X136.785 Y92.109 E42.29111
G1 X136.785 Y119.439 E43.20011
G1 X136.705 Y119.6 E43.20609
G1 X136.55 Y119.637 E43.21139
G0 F6000 X136.482 Y120.031
;TYPE:WALL-INNER
G1 F1200 X83.624 Y110.799 E44.99607
G1 X83.236 Y110.553 E45.01135
G1 X83.128 Y110.208 E45.02337
G1 X83.136 Y110.103 E45.02688
G1 X85.968 Y93.845 E45.57576
G1 X86.21 Y93.461 E45.59086
G1 X86.56 Y93.349 E45.60308
G1 X86.679 Y93.359 E45.60705
G1 X96.453 Y94.906 E45.93618
G1 F991.7 X96.86 Y94.885 E45.95259
G1 F845.1 X97.107 Y94.924 E45.9644
G1 X97.355 Y94.964 E45.97626
G1 F846.6 X97.603 Y95.003 E45.9881
G1 X97.851 Y95.043 E45.99994
G1 F848.1 X98.099 Y95.082 E46.01176
G1 X98.347 Y95.122 E46.02358
G1 F849.6 X98.595 Y95.161 E46.03537
G1 X98.842 Y95.201 E46.04713
G1 F851.1 X99.09 Y95.24 E46.0589
G1 F852.6 X99.338 Y95.28 E46.07066
G1 X99.586 Y95.319 E46.08241
G1 F854.1 X99.834 Y95.359 E46.09415
G1 X100.082 Y95.399 E46.10589
G1 F855.6 X100.33 Y95.438 E46.1176
G1 X100.578 Y95.478 E46.12932
G1 F857.1 X100.825 Y95.517 E46.14096
G1 X101.073 Y95.557 E46.15266
G1 F858.7 X101.321 Y95.596 E46.16433
G1 X101.569 Y95.636 E46.17601
G1 F860.2 X101.817 Y95.675 E46.18765
G1 X102.065 Y95.715 E46.19931
G1 F861.8 X102.313 Y95.754 E46.21094
G1 X102.561 Y95.794 E46.22257
G1 F863.3 X102.808 Y95.834 E46.23414
G1 F864.9 X103.056 Y95.873 E46.24572
G1 X103.304 Y95.913 E46.25732
G1 F866.4 X103.552 Y95.952 E46.26888
G1 X103.8 Y95.992 E46.28045
G1 F868 X104.048 Y96.031 E46.292
G1 X104.296 Y96.071 E46.30355
G1 F869.6 X104.544 Y96.11 E46.31507
G1 X104.791 Y96.15 E46.32656
G1 F871.1 X105.039 Y96.189 E46.33806
G1 X105.287 Y96.229 E46.34957
G1 F872.7 X105.535 Y96.268 E46.36105
G1 X105.783 Y96.308 E46.37254
G1 F874.3 X106.031 Y96.348 E46.384
G1 X106.279 Y96.387 E46.39546
G1 F875.9 X106.526 Y96.427 E46.40687
G1 F877.5 X106.774 Y96.466 E46.41828
G1 X107.022 Y96.506 E46.42971
G1 F879.1 X107.27 Y96.545 E46.44111
G1 X107.518 Y96.585 E46.45251
G1 F880.7 X107.766 Y96.624 E46.46389
G1 X108.014 Y96.664 E46.47527
G1 F882.4 X108.262 Y96.703 E46.48663
G1 X108.509 Y96.743 E46.49795
G1 F884 X108.757 Y96.783 E46.50929
G1 X109.005 Y96.822 E46.52062
G1 F885.6 X109.253 Y96.862 E46.53194
G1 X109.501 Y96.901 E46.54326
